!!!!SEGMENT: pl-kk--kk-i-272--002_anonim--tollite-portas.krn
!!!cenid: 17xx:2071
!!!COM: Anonim
!!!COM-rism: pe30004985
!!!CDT:
!!!CNT:
!!!OTL: Tollite portas
!!!PDT:
!!!AGN: Sacred
!!!SMS-siglum: PL-Kk
!!!SMS-shelfmark: Kk.I.272
!!!NIFC-rismID: 1001147275
!!!URL-scan: http://repozytorium.nifc.pl/skany/pl-kk-nut--i-272
!!!ONB-nifc: UWAGA: utwory w zbiorze: 1. Rorate caeli, 2. Tollite portas, 3. Alleluia. Post partum Virgo
!!!SMS-variant:
!!!SMS-altvar:
**kern	**text	**kern	**fba	**text	**kern	**text	**kern	**text	**kern	**text
*part5	*part5	*part4	*	*part4	*part3	*part3	*part2	*part2	*part1	*part1
*staff5	*staff5	*staff4	*	*staff4	*staff3	*staff3	*staff2	*staff2	*staff1	*staff1
*I"Baſso Ripieno.	*	*I"Baſso.	*	*	*I"Tenore	*	*I"Alto.	*	*I"Canto.	*
*I'B rip	*	*I'B	*	*	*I'T	*	*I'A	*	*I'S	*
*clefF4	*	*clefF4	*	*	*clefC4	*	*clefC3	*	*clefC1	*
*k[b-]	*	*k[b-]	*	*	*k[b-]	*	*k[b-]	*	*k[b-]	*
*M2/1	*	*M2/1	*	*	*M2/1	*	*M2/1	*	*M2/1	*
*met(c|)	*	*met(c|)	*	*	*met(c|)	*	*met(c|)	*	*met(c|)	*
=1	=1	=1	=1	=1	=1	=1	=1	=1	=1	=1
!LO:TX:t=6.	!	!	!	!	!	!	!	!	!	!
!LO:TX:t=Graduale	!	!	!	!	!	!	!	!	!LO:TX:t=P:problem:kreska pseudotaktowa	!
!LO:TX:t=P:problem:przy kluczu BB- B-	!	!LO:TX:t=P:problem:przy kluczu BB- B-	!	!	!	!	!	!	!LO:TX:t=P:problem:skreślony fragment na początku systemu	!
00r	.	00r	.	.	2.G/	Tol-	0r	.	0r	.
!	!	!	!	!	!LO:TX:t=P:problem:kreska pseudotaktowa	!	!	!	!	!
.	.	.	.	.	4G/	-li-	.	.	.	.
*	*	*	*	*	*2\right	*	*	*	*	*
.	.	.	.	.	2d,<\	-te	.	.	.	.
.	.	.	.	.	1d\	por-	.	.	.	.
=2-	=2-	=2-	=2-	=2-	=2-	=2-	=2-	=2-	=2-	=2-
!	!	!	!	!	!	!	!LO:TX:t=P:problem:kreska pseudotaktowa	!	!	!
*	*	*	*	*	*	*	*	*	*2\right	*
.	.	.	.	.	.	.	1r	.	2.a\	Tol-
!	!	!	!	!	!LO:TX:t=P:problem:kreska pseudotaktowa	!	!	!	!	!
.	.	.	.	.	2c\	-tas	.	.	.	.
!	!	!	!	!	!	!	!	!	!LO:TX:t=P:problem:kreska pseudotaktowa	!
.	.	.	.	.	.	.	.	.	4a\	-li-
*	*	*	*	*	*	*	*2\right	*	*	*
.	.	.	.	.	2.B-\	Prin-	2.d\	Tol-	2dd,<\	-te
.	.	.	.	.	.	.	.	.	1dd\	por-
!	!	!	!	!	!	!	!LO:TX:t=P:problem:kreska pseudotaktowa	!	!	!
.	.	.	.	.	4B-\	-ci-	4d\	-li-	.	.
=3-	=3-	=3-	=3-	=3-	=3-	=3-	=3-	=3-	=3-	=3-
!LO:TX:t=P:problem:kreska pseudotaktowa	!	!LO:TX:t=P:problem:kreska pseudotaktowa	!	!	!	!	!LO:TX:t=P:problem:♮ above	!	!	!
0r	.	0r	.	.	2A,</	-pes	2en\	-te	.	.
!	!	!	!	!	!LO:TX:t=P:problem:kreska pseudotaktowa	!	!LO:TX:t=P:problem:kreska pseudotaktowa	!	!LO:TX:t=P:problem:kreska pseudotaktowa	!
.	.	.	.	.	2A/	Ve-	2e\	Por-	2cc\	-tas
!	!	!	!	!	!LO:TX:t=P:problem:kreska pseudotaktowa	!	!	!	!LO:TX:t=P:problem:♭ above	!
.	.	.	.	.	1G/	-stras	2g,<\	-tas	2.b-X\	Prin-
!	!	!	!	!	!	!	!LO:TX:t=P:problem:kreska pseudotaktowa	!	!	!
.	.	.	.	.	.	.	[<2g\	Prin-	.	.
!	!	!	!	!	!	!	!	!	!LO:TX:t=P:problem:kreska pseudotaktowa	!
.	.	.	.	.	.	.	.	.	4b-\	-ci-
=4-	=4-	=4-	=4-	=4-	=4-	=4-	=4-	=4-	=4-	=4-
!	!	!	!	!	!LO:TX:t=P:problem:kreska pseudotaktowa	!	!LO:N:xstem:cue	!	!	!
2.D\	Tol-	2.D/	.	Tol-	1r	.	4g\]	.	1a\,	-pes
.	.	.	.	.	.	.	4g\	-ci-	.	.
!	!	!	!	!	!	!	!LO:TX:t=P:problem:kreska pseudotaktowa	!	!	!
.	.	.	.	.	.	.	2f#X\	-pes	.	.
!LO:TX:t=P:problem:kreska pseudotaktowa	!	!LO:TX:t=P:problem:kreska pseudotaktowa	!	!	!	!	!	!	!	!
4D\	-li-	4D/	.	-li-	.	.	.	.	.	.
*2\right	*	*2\right	*	*	*	*	*	*	*	*ij
2G\	-te	2G\	.	-te	2.G/	Tol-	2g\	Ve-	2.b-\	Prin-
!	!	!	!	!	!	!	!LO:TX:t=P:problem:kreska pseudotaktowa	!	!	!
1G\	por-	1G\	.	por-	.	.	2g,<\	-stras	.	.
!	!	!	!	!	!	!	!	!	!LO:TX:t=P:problem:kreska pseudotaktowa	!
.	.	.	.	.	4G/	-li-	.	.	4b-\	-ci-
=5-	=5-	=5-	=5-	=5-	=5-	=5-	=5-	=5-	=5-	=5-
!	!	!	!	!	!	!	!	!	!LO:TX:t=P:problem:kreska pseudotaktowa	!
.	.	.	.	.	2d,<\	-te	00r	.	1a\,<	-pes
*	*	*	*	*	*	*	*	*	*	*Xij
!LO:TX:t=P:problem:kreska pseudotaktowa	!	!LO:TX:t=P:problem:kreska pseudotaktowa	!	!	!	!	!	!	!	!
2F\	-tas	2F\	.	-tas	1d\	por-	.	.	.	.
2.En\	Prin-	2.En\	7	Prin-	.	.	.	.	1.g\	Ve-
!	!	!	!	!	!LO:TX:t=P:problem:kreska pseudotaktowa	!	!	!	!	!
.	.	.	6#|	.	2c\	-tas	.	.	.	.
!LO:TX:t=P:problem:kreska pseudotaktowa	!	!LO:TX:t=P:problem:kreska pseudotaktowa	!	!	!	!	!	!	!	!
4E\	-ci-	4E\	.	-ci-	.	.	.	.	.	.
=6-	=6-	=6-	=6-	=6-	=6-	=6-	=6-	=6-	=6-	=6-
!	!	!	!	!	!	!	!LO:TX:t=P:problem:kreska pseudotaktowa	!	!	!
2D\,<	-pes	2D/	.	-pes	2B-\	Prn-	.	.	.	.
!LO:TX:t=P:problem:kreska pseudotaktowa	!	!LO:TX:t=P:problem:kreska pseudotaktowa	!	!	!LO:TX:t=P:problem:kreska pseudotaktowa	!	!	!	!LO:TX:t=P:problem:kreska pseudotaktowa	!
!	!	!	!	!	!	!	!	!	!LO:TX:t=P:problem:# above	!
2D\	Ve-	2D/	.	Ve-	2A\	.	.	.	2f#X/	.
!	!	!	!	!	!LO:TX:t=P:problem:kreska pseudotaktowa	!	!	!	!	!
(2E\	-ſtras	(2E\	6	-stras	[<1c\	.	.	.	2g,<\	-stras
!LO:TX:t=P:problem:kreska pseudotaktowa	!	!LO:TX:t=P:problem:kreska pseudotaktowa	!	!	!	!	!	!	!LO:TX:t=P:problem:kreska pseudotaktowa	!
2F\)	.	2F\)	5	.	.	.	.	.	2a\	et
=7-	=7-	=7-	=7-	=7-	=7-	=7-	=7-	=7-	=7-	=7-
2.G\	Tol-	(2.G\	.	tol-	2c\]	.	2.g\	Tol-	2dd\	e-
!	!	!	!	!	!	!	!	!	!LO:TX:t=P:problem:kreska pseudotaktowa	!
.	.	.	.	.	1B-\	.	.	.	2dd\	-le-
!LO:TX:t=P:problem:kreska pseudotaktowa	!	!LO:TX:t=P:problem:kreska pseudotaktowa	!	!	!	!	!LO:TX:t=P:problem:kreska pseudotaktowa	!	!	!
4F\	.	4F\)	.	.	.	.	4g\	-li-	.	.
2.E\	.	2.E\	7	.	.	.	2g,<\	-te	2dd\	-va-
!	!	!	!	!	!	!	!LO:TX:t=P:problem:kreska pseudotaktowa	!	!	!
.	.	.	6	.	4A/	-ci-	2g\	por-	2cc#X\	-mi-
!	!	!LO:TX:t=P:problem:kreska pseudotaktowa	!	!	!LO:TX:t=P:problem:kreska pseudotaktowa	!	!	!	!	!
4E\	-li-	4E\	.	-li-	4G/	-pes	.	.	.	.
=8-	=8-	=8-	=8-	=8-	=8-	=8-	=8-	=8-	=8-	=8-
!LO:TX:t=P:problem:kreska pseudotaktowa	!	!LO:TX:t=P:problem:kreska pseudotaktowa	!	!	!	!	!	!	!LO:TX:t=P:problem:kreska pseudotaktowa	!
1D\,<	-te	1D\	.	-te	2A/	Ve-	2g,<\	-tas	1dd\,<	-ni
!	!	!	!	!	!LO:TX:t=P:problem:kreska pseudotaktowa	!	!	!	!	!
!	!	!	!	!	!LO:SIC:v:t=custos c	!	!	!	!	!
.	.	.	.	.	2B-\	.	4fn\	Prin-	.	.
!	!	!	!	!	!	!	!LO:TX:t=P:problem:kreska pseudotaktowa	!	!	!
.	.	.	.	.	.	.	4f\	-ci-	.	.
!	!	!	!	!	!LO:LB:g=original	!	!	!	!LO:TX:t=P:problem:kreska pseudotaktowa	!
2C/	et	2C/	.	et	1.c\	.	2en,<\	-pes	1r	.
!LO:TX:t=P:problem:kreska pseudotaktowa	!	!LO:TX:t=P:problem:kreska pseudotaktowa	!	!	!	!	!LO:TX:t=P:problem:kreska pseudotaktowa	!	!	!
2C/	e-	2C/	.	e-	.	.	2e\	Ve-	.	.
=9-	=9-	=9-	=9-	=9-	=9-	=9-	=9-	=9-	=9-	=9-
!	!	!	!	!	!	!	!LO:TX:t=P:problem:kreska pseudotaktowa	!	!	!
2GG/	-le-	2GG/	.	-le-	.	.	1d\	-stras	2.g/	Tol-
!LO:TX:t=P:problem:kreska pseudotaktowa	!	!LO:TX:t=P:problem:kreska pseudotaktowa	!	!	!	!	!	!	!	!
[<2G\	-va-	[<2G\	.	-va-	4B-\	.	.	.	.	.
!	!	!	!	!	!	!	!	!	!LO:TX:t=P:problem:kreska pseudotaktowa	!
!	!	!	!	!	!LO:TX:t=P:problem:kreska pseudotaktowa	!	!	!	!LO:SIC:v:t=custos dd	!
.	.	.	.	.	4A\	.	.	.	4g/	-li-
!LO:N:xstem:cue	!	!LO:N:xstem:cue	!	!	!	!	!LO:TX:t=P:problem:kreska pseudotaktowa	!	!LO:LB:g=original	!
!LO:LB:g=original	!	!	!	!	!	!	!	!	!	!
4G\]	.	4G\]	.	.	2B-\	.	1r	.	2dd,<\	-te
4G\	-mi-	4G\	.	-mi-	.	.	.	.	.	.
!LO:TX:t=P:problem:kreska pseudotaktowa	!	!LO:TX:t=P:problem:kreska pseudotaktowa	!	!	!LO:TX:t=P:problem:kreska pseudotaktowa	!	!	!	!	!
2F\	-ni	2F\	.	-ni	2A\	.	.	.	1dd\	por-
=10-	=10-	=10-	=10-	=10-	=10-	=10-	=10-	=10-	=10-	=10-
!LO:TX:t=P:problem:kreska pseudotaktowa	!	!LO:TX:t=P:problem:kreska pseudotaktowa	!	!	!	!	!	!	!	!
!	!	!LO:SIC:v:t=custos D	!	!	!LO:TX:t=P:problem:kreska pseudotaktowa	!	!LO:LB:g=original	!	!	!
1En\	por-	1En\	.	por-	1G/	-stras	2r	.	.	.
!	!	!	!	!	!	!	!LO:TX:t=P:problem:kreska pseudotaktowa	!	!LO:TX:t=P:problem:kreska pseudotaktowa	!
.	.	.	.	.	.	.	[<2g\	Tol-	2ccny\	-tas
!	!	!	!	!	!	!	!LO:N:xstem:cue	!	!	!
!	!	!LO:LB:g=original	!	!	!	!	!	!	!	!
2D,<\	-tae	2D,<\	.	-tae	0r	.	4g\]	.	(2b-\	Prin-
.	.	.	.	.	.	.	4g\	.	.	.
!LO:TX:t=P:problem:kreska pseudotaktowa	!	!LO:TX:t=P:problem:kreska pseudotaktowa	!	!	!	!	!	!	!	!
2D\	et	2D\	.	et	.	.	4f\	.	4a\)	.
!	!	!	!	!	!	!	!LO:TX:t=P:problem:kreska pseudotaktowa	!	!LO:TX:t=P:problem:kreska pseudotaktowa	!
.	.	.	.	.	.	.	4e\	.	4g\	.
=11-	=11-	=11-	=11-	=11-	=11-	=11-	=11-	=11-	=11-	=11-
!	!	!	!	!	!LO:TX:t=P:problem:kreska pseudotaktowa	!	!	!	!	!
2D\	e-	2D\	.	e-	.	.	2d\	.	4.fny/	.
.	.	.	.	.	.	.	.	.	8f/	-ci-
!	!	!LO:TX:t=P:problem:kreska pseudotaktowa	!	!	!	!	!	!	!LO:TX:t=P:problem:kreska pseudotaktowa	!
2E\	-le-	2E\	.	-le-	.	.	4c/	.	2g/	-pes,
!	!	!	!	!	!	!	!LO:TX:t=P:problem:kreska pseudotaktowa	!	!	!
.	.	.	.	.	.	.	4B-/	-li-	.	.
2.F\	-va-	2.F\	.	-va-	2r	.	4A,</	-te	1a\	Ve-
.	.	.	.	.	.	.	2a\	por-	.	.
!	!	!	!	!	!LO:TX:t=P:problem:kreska pseudotaktowa	!	!	!	!	!
.	.	.	.	.	2c\	et	.	.	.	.
!LO:TX:t=P:problem:kreska pseudotaktowa	!	!LO:TX:t=P:problem:kreska pseudotaktowa	!	!	!	!	!LO:TX:t=P:problem:kreska pseudotaktowa	!	!	!
4E\	-mi-	4E\	.	-mi-	.	.	4g\	.	.	.
=12-	=12-	=12-	=12-	=12-	=12-	=12-	=12-	=12-	=12-	=12-
!	!	!	!	!	!	!	!	!	!LO:TX:t=P:problem:kreska pseudotaktowa	!
2D,</	-ni	2D,</	.	-ni	2d\	e-	2f\	-tas	1a\,<	-stras
!LO:TX:t=P:problem:kreska pseudotaktowa	!	!LO:TX:t=P:problem:kreska pseudotaktowa	!	!	!LO:TX:t=P:problem:kreska pseudotaktowa	!	!LO:TX:t=P:problem:kreska pseudotaktowa	!	!	!
*	*ij	*	*	*	*	*	*	*	*	*
2C/	et	2C/	.	et	2e\	-le-	[2e\	Prin-	.	.
!	!	!	!	!	!	!	!LO:N:xstem:cue	!	!LO:TX:t=P:problem:kreska pseudotaktowa	!
2D\	e-	2D\	.	e-	2f\	-va-	4e\]	.	1r	.
.	.	.	.	.	.	.	4d\	-ci-	.	.
!LO:TX:t=P:problem:kreska pseudotaktowa	!	!LO:TX:t=P:problem:kreska pseudotaktowa	!	!	!	!	!	!	!	!
2D\	-le-	2D\	.	-le-	4f\	-mi-	1d\	-pes	.	.
!	!	!	!	!	!LO:TX:t=P:problem:kreska pseudotaktowa	!	!	!	!	!
.	.	.	.	.	4f\	-ni	.	.	.	.
=13-	=13-	=13-	=13-	=13-	=13-	=13-	=13-	=13-	=13-	=13-
2A\	-va-	2.A\	.	-va-	1en\	Por-	.	.	2r	.
!	!	!	!	!	!	!	!LO:TX:t=P:problem:kreska pseudotaktowa	!	!LO:TX:t=P:problem:kreska pseudotaktowa	!
2AA/	-mi-	.	.	.	.	.	2c#X\	ve-	2a\	et
!	!	!LO:TX:t=P:problem:kreska pseudotaktowa	!	!	!	!	!	!	!	!
.	.	4A\	.	-mi-	.	.	.	.	.	.
!LO:TX:t=P:problem:kreska pseudotaktowa	!	!LO:TX:t=P:problem:kreska pseudotaktowa	!	!	!	!	!	!	!	!
1D\	-ni	1D\	.	-ni	2d,<\	-tae	2d,<\	-stras	2a\	e-
*	*Xij	*	*	*	*	*	*	*	*	*
!	!	!	!	!	!LO:TX:t=P:problem:kreska pseudotaktowa	!	!	!	!LO:TX:t=P:problem:kreska pseudotaktowa	!
.	.	.	.	.	2d\	et	1f\	et	2a\	-le-
=14-	=14-	=14-	=14-	=14-	=14-	=14-	=14-	=14-	=14-	=14-
00r	.	00r	.	.	2d\	e-	.	.	2.b-\	-va-
!	!	!	!	!	!LO:TX:t=P:problem:kreska pseudotaktowa	!	!LO:TX:t=P:problem:kreska pseudotaktowa	!	!	!
.	.	.	.	.	2d\	-le-	2f\	e-	.	.
.	.	.	.	.	.	.	.	.	4b-\	-mi-
.	.	.	.	.	2e-X\	-va-	2g\	-le-	2g,</	-ni
!	!	!	!	!	!	!	!LO:TX:t=P:problem:kreska pseudotaktowa	!	!	!
!	!	!	!	!	!	!	!LO:SIC:v:s=2e-	!	!LO:TX:t=P:problem:kreska pseudotaktowa	!
.	.	.	.	.	4c\	-mi-	2e\	-va-	2a\	por-
!	!	!	!	!	!LO:TX:t=P:problem:kreska pseudotaktowa	!	!	!	!	!
.	.	.	.	.	4c\	-ni	.	.	.	.
=15-	=15-	=15-	=15-	=15-	=15-	=15-	=15-	=15-	=15-	=15-
.	.	.	.	.	2d\	por-	2.f\	-mi-	2g,</	-tae
!	!	!	!	!	!LO:TX:t=P:problem:kreska pseudotaktowa	!	!	!	!	!
.	.	.	.	.	2d\	-tae	.	.	2f/	ae-
!	!	!	!	!	!	!	!LO:TX:t=P:problem:kreska pseudotaktowa	!	!	!
.	.	.	.	.	.	.	4f\	.	.	.
!	!	!	!	!	!	!	!	!	!LO:TX:t=P:problem:kreska pseudotaktowa	!
.	.	.	.	.	4B-\	e-	2d,<\	-ni	1g\	-ter-
.	.	.	.	.	4B-\	-le-	.	.	.	.
.	.	.	.	.	2.c\	-va-	1e-X\	por-	.	.
=16-	=16-	=16-	=16-	=16-	=16-	=16-	=16-	=16-	=16-	=16-
!LO:TX:t=P:problem:kreska pseudotaktowa	!	!LO:TX:t=P:problem:kreska pseudotaktowa	!	!	!	!	!	!	!	!
1r	.	1r	.	.	.	.	.	.	4a\	-na-
.	.	.	.	.	4c\	-mi-	.	.	4g\	.
!	!	!	!	!	!LO:TX:t=P:problem:kreska pseudotaktowa	!	!LO:TX:t=P:problem:kreska pseudotaktowa	!	!LO:TX:t=P:problem:kreska pseudotaktowa	!
.	.	.	.	.	2B-\	-ni	2d\	-tae	[<2g/	.
!	!	!	!	!	!	!	!	!	!LO:N:xstem:cue	!
2D\	por-	2D\	.	por-	2A/	por-	1d\	ae-	4g\]	.
!	!	!	!	!	!	!	!	!	!LO:SIC:v:s=8f#L	!
.	.	.	.	.	.	.	.	.	8f/L	.
.	.	.	.	.	.	.	.	.	8e/J	.
!	!	!LO:TX:t=P:problem:kreska pseudotaktowa	!	!	!LO:TX:t=P:problem:kreska pseudotaktowa	!	!	!	!LO:TX:t=P:problem:kreska pseudotaktowa	!
2D\	-tae	2D\	.	-tae	2A/	-tae	.	.	2f#X/	.
=17-	=17-	=17-	=17-	=17-	=17-	=17-	=17-	=17-	=17-	=17-
!	!	!	!	!	!LO:LB:g=original	!	!	!	!	!
2E-X\	ae-	2E-X\	.	ae-	2G/	ae-	2B-/	-ter-	2g/	-les,
!LO:TX:t=P:problem:kreska pseudotaktowa	!	!LO:TX:t=P:problem:kreska pseudotaktowa	!	!	!	!	!	!	!LO:TX:t=P:problem:kreska pseudotaktowa	!
2C/	-ter-	2C/	.	-ter-	1G/	-ter-	4cny/	.	2r	.
!	!	!	!	!	!	!	!LO:TX:t=P:problem:kreska pseudotaktowa	!	!	!
.	.	.	.	.	.	.	4B-/	.	.	.
!	!	!LO:TX:t=P:problem:kreska pseudotaktowa	!	!	!	!	!	!	!LO:TX:t=P:problem:kreska pseudotaktowa	!
1D\	-na-	1D\	.	-na-	.	.	4A/	.	1a\	et
.	.	.	.	.	.	.	4G/	.	.	.
!	!	!	!	!	!	!	!LO:TX:t=P:problem:kreska pseudotaktowa	!	!	!
!	!	!	!	!	!LO:TX:t=P:problem:kreska pseudotaktowa	!	!LO:SIC:v:t=custos G	!	!	!
.	.	.	.	.	2F#X/	-na-	2A/	-na-	.	.
=18-	=18-	=18-	=18-	=18-	=18-	=18-	=18-	=18-	=18-	=18-
!	!	!LO:TX:t=P:problem:♭ above	!	!	!	!	!LO:LB:g=original	!	!	!
2BB-X,</	-les	2BB-X,</	.	-les	2G,</	-les	2G,</	-les	2b-X\	e-
!	!	!	!	!	!LO:TX:t=P:problem:kreska pseudotaktowa	!	!LO:TX:t=P:problem:kreska pseudotaktowa	!	!LO:TX:t=P:problem:kreska pseudotaktowa	!
4C/	et	4C/	.	et	2G/	e-	2g\	e-	2g\	-le-
!LO:TX:t=P:problem:kreska pseudotaktowa	!	!LO:TX:t=P:problem:kreska pseudotaktowa	!	!	!	!	!	!	!	!
4BB-/	.	4BB-/	.	.	.	.	.	.	.	.
!LO:LB:g=original	!	!	!	!	!	!	!	!	!	!
4AA/	e-	4AA/	.	e-	1A\	-le-	2g\	-le-	2.cc\	-va-
4GG/	.	4GG/	.	.	.	.	.	.	.	.
!LO:TX:t=P:problem:kreska pseudotaktowa	!	!LO:TX:t=P:problem:kreska pseudotaktowa	!	!	!	!	!	!	!	!
2AA/	le-	2AA/	.	.	.	.	4f#X\	-va-	.	.
!	!	!	!	!	!	!	!LO:TX:t=P:problem:kreska pseudotaktowa	!	!LO:TX:t=P:problem:kreska pseudotaktowa	!
.	.	.	.	.	.	.	4f#\	-mi-	4cc\	-mi-
=19-	=19-	=19-	=19-	=19-	=19-	=19-	=19-	=19-	=19-	=19-
2GG,</	-va-	2GG,</	.	le-	4B-\	-va-	2g\	-ni	2b-,<\	-ni
.	.	.	.	.	4B-\	-mi-	.	.	.	.
!	!	!LO:TX:t=P:problem:kreska pseudotaktowa	!	!	!LO:TX:t=P:problem:kreska pseudotaktowa	!	!LO:TX:t=P:problem:kreska pseudotaktowa	!	!LO:TX:t=P:problem:kreska pseudotaktowa	!
2.G\	.	2.G\	.	-va-	2G/	-ni	2re	.	2b-\	et
!	!	!	!	!	!LO:TX:t=P:problem:kreska pseudotaktowa	!	!	!	!	!
.	.	.	.	.	1A\	por-	2.d\	e-	4dd\	e-
4G\	-mi-	4G\	.	-mi-	.	.	.	.	4dd\	-le-
!LO:TX:t=P:problem:kreska pseudotaktowa	!	!LO:TX:t=P:problem:kreska pseudotaktowa	!	!	!	!	!	!	!LO:TX:t=P:problem:kreska pseudotaktowa	!
2F\	-ni	2F\	.	-ni	.	.	.	.	[<2dd\	-va-
!	!	!	!	!	!	!	!LO:TX:t=P:problem:kreska pseudotaktowa	!	!	!
.	.	.	.	.	.	.	4d\	-le-	.	.
=20-	=20-	=20-	=20-	=20-	=20-	=20-	=20-	=20-	=20-	=20-
!LO:TX:t=P:problem:kreska pseudotaktowa	!	!	!	!	!	!	!	!	!LO:N:xstem:cue	!
1E-X\	por-	1E-X\	.	por-	2G/	-tae	2.e-X\	-va-	4dd\]	.
.	.	.	.	.	.	.	.	.	4dd\	-mi-
!	!	!	!	!	!LO:TX:t=P:problem:kreska pseudotaktowa	!	!	!	!	!
.	.	.	.	.	2r	.	.	.	1cc\,<	-ni
!	!	!	!	!	!	!	!LO:TX:t=P:problem:kreska pseudotaktowa	!	!	!
.	.	.	.	.	.	.	4c/	-mi-	.	.
!LO:TX:t=P:problem:kreska pseudotaktowa	!	!LO:TX:t=P:problem:kreska pseudotaktowa	!	!	!	!	!	!	!	!
!	!	!LO:SIC:v:t=custos C	!	!	!	!	!	!	!	!
1D\,<	-tae	1D\	.	-tae	2d\	ae-	2fny\	-ni	.	.
!	!	!	!	!	!LO:TX:t=P:problem:kreska pseudotaktowa	!	!LO:TX:t=P:problem:kreska pseudotaktowa	!	!LO:TX:t=P:problem:kreska pseudotaktowa	!
.	.	.	.	.	2d\	-ter-	2F/	por-	2b-\	por-
=21-	=21-	=21-	=21-	=21-	=21-	=21-	=21-	=21-	=21-	=21-
!	!	!LO:LB:g=original	!	!	!LO:TX:t=P:problem:♭ above	!	!	!	!	!
1C/	ae-	1C/	.	ae-	4e-X\	-na-	2G,</	-tae	2b-,<\	-tae
.	.	.	.	.	4d\	.	.	.	.	.
!	!	!	!	!	!	!	!	!	!LO:TX:t=P:problem:kreska pseudotaktowa	!
.	.	.	.	.	2.c\	.	2.e-X\	ae-	[<2a\	ae-
!	!	!	!	!	!	!	!	!	!LO:N:xstem:cue	!
1E-X\	-ter-	1E-X\	.	-ter-	.	.	.	.	4a\]	.
.	.	.	.	.	4B-/	.	4d\	.	4g/	-ter-
!	!	!	!	!	!	!	!LO:TX:t=P:problem:kreska pseudotaktowa	!	!LO:TX:t=P:problem:kreska pseudotaktowa	!
.	.	.	.	.	4A/	.	2c/	-ter-	[<2cc\	.
!	!	!	!	!	!LO:TX:t=P:problem:kreska pseudotaktowa	!	!	!	!	!
.	.	.	.	.	4G/	.	.	.	.	.
=22-	=22-	=22-	=22-	=22-	=22-	=22-	=22-	=22-	=22-	=22-
!	!	!	!	!	!	!	!	!	!LO:N:xstem:cue	!
0D\	-na-	0D\	.	-na-	4F#X/	.	0d\	-na-	4cc\]	.
.	.	.	.	.	4D/	.	.	.	4b-\	.
.	.	.	.	.	1G/	.	.	.	4a\	.
!	!	!	!	!	!	!	!	!	!LO:TX:t=P:problem:kreska pseudotaktowa	!
.	.	.	.	.	.	.	.	.	4g\	.
.	.	.	.	.	.	.	.	.	1a\	-na-
!	!	!	!	!	!LO:TX:t=P:problem:kreska pseudotaktowa	!	!	!	!	!
.	.	.	.	.	2F#X/	.	.	.	.	.
=23-	=23-	=23-	=23-	=23-	=23-	=23-	=23-	=23-	=23-	=23-
2GG/	-les.	2GG/	.	-les.	2G,</	-les,	2d,<\	-les	2b-,<\	-les
!LO:TX:t=P:problem:kreska pseudotaktowa	!	!LO:TX:t=P:problem:kreska pseudotaktowa	!	!	!	!	!LO:TX:t=P:problem:kreska pseudotaktowa	!	!LO:TX:t=P:problem:kreska pseudotaktowa	!
2rBB	.	2rBB	.	.	2d\	et	2f\	et	2a\	et
!LO:TX:t=P:problem:kreska pseudotaktowa	!	!LO:TX:t=P:problem:kreska pseudotaktowa	!	!	!LO:TX:t=P:problem:kreska pseudotaktowa	!	!	!	!	!
0r	.	0r	.	.	1d\	in-	2f\	in-	2a\	in-
!	!	!	!	!	!	!	!LO:TX:t=P:problem:kreska pseudotaktowa	!	!	!
.	.	.	.	.	.	.	2f\	-tro-	2a\	-tro-
=24-	=24-	=24-	=24-	=24-	=24-	=24-	=24-	=24-	=24-	=24-
.	.	.	.	.	2c\	-tro-	2eny\	-i-	1a\	-i-
!	!	!	!	!	!LO:TX:t=P:problem:kreska pseudotaktowa	!	!LO:TX:t=P:problem:kreska pseudotaktowa	!	!	!
.	.	.	.	.	2d\	-i-	2f\	-bit	.	.
!	!	!	!	!	!	!	!LO:TX:t=P:problem:kreska pseudotaktowa	!	!	!
2r	.	2r	.	.	4G/	.	1g\	Rex	2b-\	.
.	.	.	.	.	4A/	.	.	.	.	.
!LO:TX:t=P:problem:kreska pseudotaktowa	!	!LO:TX:t=P:problem:kreska pseudotaktowa	!	!	!	!	!	!	!LO:TX:t=P:problem:kreska pseudotaktowa	!
2G\	et	2G\	.	et	4B-/	.	.	.	2b-\	-bit
.	.	.	.	.	4c/	.	.	.	.	.
=25-	=25-	=25-	=25-	=25-	=25-	=25-	=25-	=25-	=25-	=25-
!	!	!	!	!	!	!	!	!	!LO:TX:t=P:problem:kreska pseudotaktowa	!
2D\	in-	2D\	.	in-	2d\	-bit	(2f\	et	1a\,<	Rex
!	!	!	!	!	!LO:TX:t=P:problem:kreska pseudotaktowa	!	!LO:TX:t=P:problem:kreska pseudotaktowa	!	!	!
!LO:TX:t=P:problem:kreska pseudotaktowa	!	!LO:TX:t=P:problem:kreska pseudotaktowa	!	!	!LO:SIC:v:t=custos c	!	!LO:SIC:v:t=custos e	!	!	!
2F\	-tro-	2F\	.	-tro-	2A/	et	2a\)	.	.	.
!	!	!	!	!	!LO:LB:g=original	!	!LO:PB:g=original	!	!	!
(4C/	-i-	4C/	.	-i-	2c\	in-	2e\	in-	0r	.
4D/)	.	4D/	.	.	.	.	.	.	.	.
!	!	!LO:SIC:v:s=4E-	!	!	!LO:TX:t=P:problem:kreska pseudotaktowa	!	!LO:TX:t=P:problem:kreska pseudotaktowa	!	!	!
(4E-X/	.	4Eny\	.	.	2G/	-tro-	2g\	-tro-	.	.
!	!	!LO:TX:t=P:problem:kreska pseudotaktowa	!	!	!	!	!	!	!	!
4F/)	.	4F\	.	.	.	.	.	.	.	.
=26-	=26-	=26-	=26-	=26-	=26-	=26-	=26-	=26-	=26-	=26-
2G,<\	-bit	2G,<\	.	-bit	4B-\	-i-	4d\	-i-	.	.
.	.	.	.	.	4c\	.	4e\	.	.	.
!LO:TX:t=P:problem:kreska pseudotaktowa	!	!LO:TX:t=P:problem:kreska pseudotaktowa	!	!	!	!	!	!	!	!
2F\	Rex	2F\	.	Rex	4d\	.	4f\	.	.	.
!	!	!	!	!	!LO:TX:t=P:problem:kreska pseudotaktowa	!	!LO:TX:t=P:problem:kreska pseudotaktowa	!	!	!
.	.	.	.	.	4eny\	.	4g\	.	.	.
!	!	!	!	!	!	!	!LO:TX:t=P:problem:kreska pseudotaktowa	!	!LO:TX:t=P:problem:kreska pseudotaktowa	!
2A\	glo-	2.A\	.	glo-	2d\	.	1e\	-bit	1r	.
!	!	!	!	!	!LO:TX:t=P:problem:kreska pseudotaktowa	!	!	!	!	!
2AA/	.	.	.	.	2c#X\	-bit	.	.	.	.
!	!	!LO:TX:t=P:problem:kreska pseudotaktowa	!	!	!	!	!	!	!	!
.	-ri-	4AA/	.	-ri-	.	.	.	.	.	.
=27-	=27-	=27-	=27-	=27-	=27-	=27-	=27-	=27-	=27-	=27-
2D\	-ae	2D/	.	-ae	(1.d\	Rex	2f,<\	Rex	2r	.
!LO:TX:t=P:problem:kreska pseudotaktowa	!	!LO:TX:t=P:problem:kreska pseudotaktowa	!	!	!	!	!	!	!LO:TX:t=P:problem:kreska pseudotaktowa	!
2r	.	2r	.	.	.	.	1f\	Rex	2a\	et
!LO:LB:g=original	!	!	!	!	!	!	!	!	!	!
00rG	.	00r	.	.	.	.	.	.	2a\	in-
!	!	!	!	!	!LO:TX:t=P:problem:kreska pseudotaktowa	!	!LO:TX:t=P:problem:kreska pseudotaktowa	!	!LO:TX:t=P:problem:kreska pseudotaktowa	!
.	.	.	.	.	2B-\)	.	2d\	.	2b-\	-tro-
=28-	=28-	=28-	=28-	=28-	=28-	=28-	=28-	=28-	=28-	=28-
.	.	.	.	.	2.cny\	glo-	1e\,<	.	2g/	-i-
!	!	!	!	!	!	!	!	!	!LO:TX:t=P:problem:kreska pseudotaktowa	!
!	!	!	!	!	!	!	!	!	!LO:SIC:v:t=custos a	!
.	.	.	.	.	.	.	.	.	2g/	-bit
.	.	.	.	.	4c\	-ri-	.	.	.	.
!	!	!	!	!	!	!	!	!	!LO:LB:g=original	!
.	.	.	.	.	2A,<\	-ae	2c\	glo-	2a,<\	Rex
!	!	!	!	!	!LO:TX:t=P:problem:kreska pseudotaktowa	!	!LO:TX:t=P:problem:kreska pseudotaktowa	!	!LO:TX:t=P:problem:kreska pseudotaktowa	!
.	.	.	.	.	2B-\	et	[<2d\	.	[<2fny/	glo-
=29-	=29-	=29-	=29-	=29-	=29-	=29-	=29-	=29-	=29-	=29-
!	!	!	!	!	!	!	!LO:N:xstem:cue	!	!LO:N:xstem:cue	!
.	.	.	.	.	2B-\	in-	4d\]	.	4f/]	.
.	.	.	.	.	.	.	4d\	-ri-	4f/	-ri-
!	!	!	!	!	!	!	!LO:TX:t=P:problem:kreska pseudotaktowa	!	!LO:TX:t=P:problem:kreska pseudotaktowa	!
.	.	.	.	.	2G/	-tro-	2e\	-ae	2g,<\	-ae
00rG	.	00r	.	.	4Fny/	-i-	1f\	et	1a\	et
.	.	.	.	.	4G/	.	.	.	.	.
.	.	.	.	.	4A/	.	.	.	.	.
!	!	!	!	!	!LO:TX:t=P:problem:kreska pseudotaktowa	!	!	!	!	!
.	.	.	.	.	4B-/	.	.	.	.	.
=30-	=30-	=30-	=30-	=30-	=30-	=30-	=30-	=30-	=30-	=30-
.	.	.	.	.	2c,<\	bit	2e\	in-	2g\	in-
!	!	!	!	!	!LO:TX:t=P:problem:kreska pseudotaktowa	!	!LO:TX:t=P:problem:kreska pseudotaktowa	!	!LO:TX:t=P:problem:kreska pseudotaktowa	!
.	.	.	.	.	2c\	et	2e\	-tro-	2g\	-tro-
.	.	.	.	.	2d\	in-	2f\	-i-	2b-\	-i-
!	!	!	!	!	!LO:TX:t=P:problem:kreska pseudotaktowa	!	!LO:TX:t=P:problem:kreska pseudotaktowa	!	!LO:TX:t=P:problem:kreska pseudotaktowa	!
.	.	.	.	.	2c\	-tro-	2e\	.	2a,<\	-bit
=31-	=31-	=31-	=31-	=31-	=31-	=31-	=31-	=31-	=31-	=31-
.	.	.	.	.	2B-\	-i-	2d,<\	-bit	(2g/	Rex
!	!	!	!	!	!LO:TX:t=P:problem:kreska pseudotaktowa	!	!LO:TX:t=P:problem:kreska pseudotaktowa	!	!LO:TX:t=P:problem:kreska pseudotaktowa	!
.	.	.	.	.	2A/	-bit	2c/	Rex	2f/)	.
!LO:TX:t=P:problem:kreska pseudotaktowa	!	!LO:TX:t=P:problem:kreska pseudotaktowa	!	!	!	!	!	!	!	!
1rA	.	1r	.	.	2.G/	Rex	2.B-/	glo-	4e/	glo-
.	.	.	.	.	.	.	.	.	4d/	.
.	.	.	.	.	.	.	.	.	1dd\	.
.	.	.	.	.	4F/	.	4A/	-ri-	.	.
=32-	=32-	=32-	=32-	=32-	=32-	=32-	=32-	=32-	=32-	=32-
!	!	!	!	!	!	!	!LO:TX:t=P:problem:kreska pseudotaktowa	!	!	!
2r	.	2r	.	.	2.E/	glo-	2G/	-ae	.	.
!LO:TX:t=P:problem:kreska pseudotaktowa	!	!LO:TX:t=P:problem:kreska pseudotaktowa	!	!	!	!	!	!	!LO:TX:t=P:problem:kreska pseudotaktowa	!
2G\	et	2G\	.	et	.	.	1g\	glo-	2cc#X\	-ri-
!	!	!	!	!	!LO:TX:t=P:problem:kreska pseudotaktowa	!	!	!	!	!
.	.	.	.	.	4E/	-ri-	.	.	.	.
!	!	!	!	!	!LO:TX:t=P:problem:kreska pseudotaktowa	!	!	!	!LO:TX:t=P:problem:kreska pseudotaktowa	!
2B-\	in-	2B-\	.	in-	1D/	-ae	.	.	1dd\,<	-ae
!LO:TX:t=P:problem:kreska pseudotaktowa	!	!LO:TX:t=P:problem:kreska pseudotaktowa	!	!	!	!	!	!	!	!
2A\	-tro-	2A\	.	-tro-	.	.	2f#X\	-ri-	.	.
=33-	=33-	=33-	=33-	=33-	=33-	=33-	=33-	=33-	=33-	=33-
!	!	!	!	!	!	!	!LO:TX:t=P:problem:kreska pseudotaktowa	!	!	!
2G\	-i-	2G\	.	-i-	0r	.	2g\	-ae	2b-\	et
!LO:TX:t=P:problem:kreska pseudotaktowa	!	!LO:TX:t=P:problem:kreska pseudotaktowa	!	!	!	!	!LO:SIC:v:t=custos d	!	!LO:TX:t=P:problem:kreska pseudotaktowa	!
2F\	bit	2F\	.	.	.	.	2r	.	2a\	.
!	!	!	!	!	!	!	!LO:LB:g=original	!	!	!
4E\	Rex	4E\	.	-bit	.	.	2r	.	2g/	in-
4D\	.	4D\	.	.	.	.	.	.	.	.
!	!	!	!	!	!	!	!LO:TX:t=P:problem:kreska pseudotaktowa	!	!	!
1D\	.	1D\	.	Rex	.	.	2d\	et	(4f/	-tro-
!	!	!	!	!	!	!	!	!	!LO:TX:t=P:problem:kreska pseudotaktowa	!
.	.	.	.	.	.	.	.	.	4g/)	.
=34-	=34-	=34-	=34-	=34-	=34-	=34-	=34-	=34-	=34-	=34-
!	!	!	!	!	!LO:TX:t=P:problem:kreska pseudotaktowa	!	!	!	!	!
!	!	!	!	!	!LO:SIC:v:t=custos A	!	!	!	!	!
.	-ri-	.	.	-ri-	1r	.	2fny\	in-	4a/	-i-
.	.	.	.	.	.	.	.	.	4e/	.
!LO:TX:t=P:problem:kreska pseudotaktowa	!	!LO:TX:t=P:problem:kreska pseudotaktowa	!	!	!	!	!LO:TX:t=P:problem:kreska pseudotaktowa	!	!	!
2C/	.	2C/	.	.	.	.	2e\	-tro-	4a/	.
!	!	!	!	!	!	!	!	!	!LO:TX:t=P:problem:kreska pseudotaktowa	!
.	.	.	.	.	.	.	.	.	4g/	.
!	!	!	!	!	!LO:PB:g=original	!	!	!	!	!
2.D/	glo-	2.D\	.	glo-	2r	.	4e\	-i-	1f/	.
.	.	.	.	.	.	.	8d\L	.	.	.
.	.	.	.	.	.	.	8c\J	.	.	.
!	!	!	!	!	!LO:TX:t=P:problem:kreska pseudotaktowa	!	!LO:TX:t=P:problem:kreska pseudotaktowa	!	!	!
.	.	.	.	.	2A\	in-	2d\	.	.	.
!	!	!LO:TX:t=P:problem:kreska pseudotaktowa	!	!	!	!	!	!	!	!
4C/	-ri-	4C/	.	-ri-	.	.	.	.	.	.
=35-	=35-	=35-	=35-	=35-	=35-	=35-	=35-	=35-	=35-	=35-
2BB-,</	ae	2BB-,</	.	ae	2B-\	-tro-	2d,<\	bit	2g\	bit
!	!	!LO:SIC:v:t=custos GG	!	!	!LO:TX:t=P:problem:kreska pseudotaktowa	!	!LO:TX:t=P:problem:kreska pseudotaktowa	!	!LO:TX:t=P:problem:kreska pseudotaktowa	!
!LO:TX:t=P:problem:kreska pseudotaktowa	!	!LO:TX:t=P:problem:kreska pseudotaktowa	!	!	!	!	!	!	!	!
2F#/	Rex	2FF#/	.	Rex	2A/	-i-	2d\	Rex	2a\	Rex
!	!	!LO:LB:g=original	!	!	!	!	!	!	!	!
1.G\	Glo-	1.GG/	.	Glo-	2G,</	-bit	1.d\	glo-	2b-\	Glo-
!	!	!	!	!	!LO:TX:t=P:problem:kreska pseudotaktowa	!	!	!	!LO:TX:t=P:problem:kreska pseudotaktowa	!
.	.	.	.	.	2A/	Rex	.	.	[<2a\	.
=36-	=36-	=36-	=36-	=36-	=36-	=36-	=36-	=36-	=36-	=36-
!	!	!	!	!	!	!	!	!	!LO:N:xstem:cue	!
.	.	.	.	.	2.B-\	glo-	.	.	4a\]	.
.	.	.	.	.	.	.	.	.	8g/L	.
.	.	.	.	.	.	.	.	.	8f/J	.
!	!	!LO:TX:t=P:problem:kreska pseudotaktowa	!	!	!	!	!LO:TX:t=P:problem:kreska pseudotaktowa	!	!	!
2G\	-ri-	2GG/	.	-ri-	.	.	2d\	-ri-	4.g/	.
!	!	!	!	!	!LO:TX:t=P:problem:kreska pseudotaktowa	!	!	!	!	!
.	.	.	.	.	4B-\	-ri-	.	.	.	.
!	!	!	!	!	!	!	!	!	!LO:TX:t=P:problem:kreska pseudotaktowa	!
.	.	.	.	.	.	.	.	.	8g/	ri-
!LO:N:vis=0	!	!LO:N:vis=0	!	!	!	!	!LO:N:vis=0	!	!LO:TX:t=P:problem:♯ above	!
1D\;	-ae.	1D\;	.	-ae.	1A\	-ae.	1d\;	-ae.	1f#X/;	-ae.
=37||	=37||	=37||	=37||	=37||	=37||	=37||	=37||	=37||	=37||	=37||
*M2/1	*	*M2/1	*	*	*M2/1	*	*M2/1	*	*M2/1	*
*met(c|)	*	*met(c|)	*	*	*met(c|)	*	*met(c|)	*	*met(c|)	*
!	!	!	!	!	!LO:TX:t=P:problem:kreska pseudotaktowa	!	!	!	!LO:PB:g=original	!
!LO:TX:t=P:problem:kreska pseudotaktowa	!	!LO:PB:g=original	!	!	!	!	!	!	!	!
1G\	Quis	1G\	.	Quis	1r	.	00r	.	00r	.
!	!	!	!	!	!LO:TX:t=P:problem:kreska pseudotaktowa	!	!	!	!	!
2D/	a-	2D/	.	a-	1d\	Quis	.	.	.	.
!LO:TX:t=P:problem:kreska pseudotaktowa:między nutą a kropką	!	!LO:TX:t=P:problem:kreska pseudotaktowa:między nutą a kropką	!	!	!	!	!	!	!	!
2.G\	-ſcen-	2.G\	.	-scen-	.	.	.	.	.	.
=38-	=38-	=38-	=38-	=38-	=38-	=38-	=38-	=38-	=38-	=38-
.	.	.	.	.	2G/	a-	.	.	.	.
!LO:LB:g=original	!	!	!	!	!	!	!	!	!	!
4G\	-det	4G\	.	-det	.	.	.	.	.	.
!LO:TX:t=P:problem:kreska pseudotaktowa	!	!LO:TX:t=P:problem:kreska pseudotaktowa	!	!	!	!	!	!	!	!
2F\	in	2F\	.	in	2.d\	-ſcen-	.	.	.	.
2B-\	Mon-	2B-\	.	Mon-	.	.	.	.	.	.
.	.	.	.	.	4d\	-dit	.	.	.	.
!	!	!	!	!	!LO:TX:t=P:problem:kreska pseudotaktowa	!	!	!	!	!
1A\	.	1A\	.	.	2c\	in	.	.	.	.
=39-	=39-	=39-	=39-	=39-	=39-	=39-	=39-	=39-	=39-	=39-
!	!	!	!	!	!	!	!LO:TX:t=P:problem:kreska pseudotaktowa	!	!LO:TX:t=P:problem:kreska pseudotaktowa	!
.	.	.	.	.	2f\	mon-	00r	.	0r	.
!LO:TX:t=P:problem:kreska pseudotaktowa	!	!LO:TX:t=P:problem:kreska pseudotaktowa	!	!	!LO:TX:t=P:problem:kreska pseudotaktowa:miedzy kropka a nuta	!	!	!	!	!
2G\	-tem	2G\	.	-tem	2.e\	-tem	.	.	.	.
2.F\	Do-	2.F\	.	Do-	.	.	.	.	.	.
.	.	.	.	.	4d\	.	.	.	.	.
.	.	.	.	.	1d\	Do-	.	.	.	.
8E\L	.	8E\L	.	.	.	.	.	.	.	.
!LO:TX:t=P:problem:kreska pseudotaktowa	!	!LO:TX:t=P:problem:kreska pseud>.otaktowa	!	!	!	!	!	!	!	!
8D\J	.	8D\J	.	.	.	.	.	.	.	.
=40-	=40-	=40-	=40-	=40-	=40-	=40-	=40-	=40-	=40-	=40-
!	!	!	!	!	!	!	!	!	!LO:TX:t=P:problem:kreska pseudotaktowa	!
4E\	.	4E\	.	.	.	.	.	.	1g\	Quis
4D\	.	4D\	.	.	.	.	.	.	.	.
4E\	.	4E\	.	.	1c\	.	.	.	.	.
!	!	!LO:TX:t=P:problem:kreska pseudotaktowa	!	!	!	!	!	!	!	!
4F\	.	4F\	.	.	.	.	.	.	.	.
2G\	.	2.G\	.	.	.	.	.	.	2d/	a-
!	!	!	!	!	!LO:TX:t=P:problem:kreska pseudotaktowa	!	!	!	!LO:TX:t=P:problem:kreska pseudotaktowa	!
2GG/	.	.	.	.	2B-\	.	.	.	[<2g/	-scen-
!	!	!LO:TX:t=P:problem:kreska pseudotaktowa	!	!	!	!	!	!	!	!
.	-mi-	4G\	.	-mi-	.	.	.	.	.	.
=41-	=41-	=41-	=41-	=41-	=41-	=41-	=41-	=41-	=41-	=41-
!LO:TX:t=P:problem:kreska pseudotaktowa	!	!LO:TX:t=P:problem:kreska pseudotaktowa	!	!	!	!	!	!	!LO:N:xstem:cue	!
1D\	-ni	1D\	.	-ni	2.A/	.	1d\	Quis	4g\]	.
.	.	.	.	.	.	.	.	.	4g/	-det
!	!	!	!	!	!	!	!	!	!LO:TX:t=P:problem:kreska pseudotaktowa	!
.	.	.	.	.	.	.	.	.	2fn/	in
!	!	!	!	!	!LO:TX:t=P:problem:kreska pseudotaktowa	!	!	!	!	!
.	.	.	.	.	4A/	-mi-	.	.	.	.
!LO:TX:t=P:problem:kreska pseudotaktowa	!	!LO:TX:t=P:problem:kreska pseudotaktowa	!	!	!	!	!	!	!LO:TX:t=P:problem:♭ above	!
00r	.	00r	.	.	2G,</	-ni	2G/	a-	1b-X\	Mon-
!	!	!	!	!	!	!	!LO:TX:t=P:problem:kreska pseudotaktowa	!	!	!
.	.	.	.	.	1G/	in	[<2d\	-scen-	.	.
=42-	=42-	=42-	=42-	=42-	=42-	=42-	=42-	=42-	=42-	=42-
!	!	!	!	!	!	!	!LO:N:xstem:cue	!	!	!
.	.	.	.	.	.	.	4d\]	.	2b-\	-tem
.	.	.	.	.	.	.	4d\	-det	.	.
!	!	!	!	!	!LO:TX:t=P:problem:kreska pseudotaktowa	!	!LO:TX:t=P:problem:kreska pseudotaktowa	!	!	!
.	.	.	.	.	[2A\	mon-	2c\	in	1a\	Do-
!	!	!	!	!	!LO:N:xstem:cue	!	!	!	!	!
.	.	.	.	.	4A\]	.	2f\	mon-	.	.
.	.	.	.	.	4B-\	.	.	.	.	.
!	!	!	!	!	!LO:TX:t=P:problem:kreska pseudotaktowa	!	!	!	!	!
.	.	.	.	.	2c\	.	4e\	-tem	4g/	.
!	!	!	!	!	!	!	!LO:TX:t=P:problem:kreska pseudotaktowa	!	!LO:TX:t=P:problem:kreska pseudotaktowa	!
.	.	.	.	.	.	.	4d\	.	4f/	.
=43-	=43-	=43-	=43-	=43-	=43-	=43-	=43-	=43-	=43-	=43-
.	.	.	.	.	2c\	.	4e\	Do-	4g/	.
.	.	.	.	.	.	.	4d\	.	4f/	.
!	!	!	!	!	!LO:TX:t=P:problem:kreska pseudotaktowa	!	!	!	!	!
!	!	!	!	!	!LO:SIC:v:t=custos d	!	!	!	!	!
.	.	.	.	.	2d\	-tem	1d\	.	4e/	.
!	!	!	!	!	!	!	!	!	!LO:TX:t=P:problem:kreska pseudotaktowa	!
.	.	.	.	.	.	.	.	.	4d/	.
!	!	!	!	!	!LO:TX:t=P:problem:skreślony dźwięk	!	!	!	!	!
!	!	!	!	!	!LO:LB:g=original	!	!	!	!	!
1A\	aut	1A\	.	aut	2.A/	Do-	.	.	2.e/	.
!	!	!	!	!	!	!	!LO:TX:t=P:problem:kreska pseudotaktowa	!	!	!
.	.	.	.	.	.	.	2c#X\	mi-	.	.
.	.	.	.	.	4A/	-mi-	.	.	4e/	-mi-
=44-	=44-	=44-	=44-	=44-	=44-	=44-	=44-	=44-	=44-	=44-
!	!	!	!	!	!	!	!LO:TX:t=P:problem:kreska pseudotaktowa	!	!LO:TX:t=P:problem:kreska pseudotaktowa	!
2F#X\	quis	2F#X\	6	quis	2D,</	-ni	0d\	-ni	1d/	-ni
!	!	!	!	!	!LO:TX:t=P:problem:kreska pseudotaktowa	!	!	!	!	!
1G\	ſta-	1G\	5 3	sta-	2B-X\	aut	.	.	.	.
.	.	.	4 2	.	2A\	quis	.	.	2r	.
!LO:TX:t=P:problem:kreska pseudotaktowa	!	!LO:TX:t=P:problem:kreska pseudotaktowa	!	!	!LO:TX:t=P:problem:kreska pseudotaktowa	!	!	!	!	!
2F#\	.	2F#X\	6	.	2A\	sta-	.	.	1dd\	aut
=45-	=45-	=45-	=45-	=45-	=45-	=45-	=45-	=45-	=45-	=45-
!LO:TX:t=P:problem:kreska pseudotaktowa	!	!LO:TX:t=P:problem:kreska pseudotaktowa	!	!	!LO:TX:t=P:problem:kreska pseudotaktowa	!	!	!	!	!
1G\	-bit	1G\	.	-bit	1G/	-bit	2r	.	.	.
!	!	!	!	!	!	!	!LO:TX:t=P:problem:kreska pseudotaktowa	!	!	!
!	!	!	!	!	!	!	!LO:SIC:v:t=custos e	!	!LO:TX:t=P:problem:kreska pseudotaktowa	!
.	.	.	.	.	.	.	2g\	aut	2bn\	quis
!LO:TX:t=P:problem:kreska pseudotaktowa	!	!LO:TX:t=P:problem:kreska pseudotaktowa	!	!	!LO:TX:t=P:problem:kreska pseudotaktowa	!	!LO:LB:g=original	!	!	!
1r	.	1r	.	.	0r	.	2e,<\	quis	1cc\	sta-
.	.	.	.	.	.	.	1f\	sta-	.	.
=46-	=46-	=46-	=46-	=46-	=46-	=46-	=46-	=46-	=46-	=46-
2r	.	2r	.	.	.	.	.	.	2a,<\	-bit
!	!	!	!	!	!	!	!	!	!LO:TX:t=P:problem:kreska pseudotaktowa	!
!LO:TX:t=P:problem:kreska pseudotaktowa	!	!LO:TX:t=P:problem:kreska pseudotaktowa	!	!	!	!	!LO:TX:t=P:problem:kreska pseudotaktowa	!	!LO:TX:t=P:problem:♭ above	!
*	*	*	*	*	*	*	*	*	*	*ij
2G,<\	aut	2G,<\	.	aut	.	.	2d\	-bit	2b-X\	aut
!LO:TX:t=P:problem:♮above	!	!	!	!	!	!	!	!	!	!
2En\	quis	2E\	6	quis	2c\	aut	4e\	in	2g/	quis
.	.	.	.	.	.	.	4d\	.	.	.
!LO:TX:t=P:problem:kreska pseudotaktowa	!	!LO:TX:t=P:problem:kreska pseudotaktowa	!	!	!	!	!	!	!	!
2Fny\	ſta-	2Fny\	.	sta-	1A\	quis	4cny/	.	1a\	sta-
.	.	.	.	.	.	.	4B-/	.	.	.
=47-	=47-	=47-	=47-	=47-	=47-	=47-	=47-	=47-	=47-	=47-
!LO:LB:g=original	!	!	!	!	!	!	!	!	!	!
2F\	-bit	2F\	.	-bit	.	.	2c\	lo-	.	.
!LO:TX:t=P:problem:kreska pseudotaktowa	!	!LO:TX:t=P:problem:kreska pseudotaktowa	!	!	!LO:TX:t=P:problem:kreska pseudotaktowa	!	!	!	!LO:TX:t=P:problem:kreska pseudotaktowa	!
2D\	in	2D\	6	in	2B-\	sta-	(4d\	-co	2f/	.
!	!	!	!	!	!	!	!LO:TX:t=P:problem:kreska pseudotaktowa	!	!	!
.	.	.	.	.	.	.	4c\)	.	.	.
2E-X\	lo-	2E-X\	.	lo-	2B-\	-bit	2.B-/	San-	2g,<\	-bit
*	*	*	*	*	*	*	*	*	*	*Xij
!	!	!	!	!	!LO:TX:t=P:problem:kreska pseudotaktowa	!	!	!	!LO:TX:t=P:problem:kreska pseudotaktowa	!
(4E-/	-co	(4E-\	.	-co	2G/	in	.	.	2b-\	in
!	!	!LO:TX:t=P:problem:kreska pseudotaktowa	!	!	!	!	!	!	!	!
!	!	!LO:SIC:v:t=custos C	!	!	!	!	!	!	!	!
4D/)	.	4D\)	.	.	.	.	8c\L	-cto	.	.
!	!	!	!	!	!	!	!LO:TX:t=P:problem:kreska pseudotaktowa	!	!	!
.	.	.	.	.	.	.	8d\J	.	.	.
=48-	=48-	=48-	=48-	=48-	=48-	=48-	=48-	=48-	=48-	=48-
!	!	!LO:LB:g=original	!	!	!	!	!	!	!	!
2C/	san-	2C/	.	san-	2G/	lo-	2e-X\	E-	2cc\	lo-
!	!	!LO:TX:t=P:problem:kreska pseudotaktowa	!	!	!LO:TX:t=P:problem:kreska pseudotaktowa	!	!LO:TX:t=P:problem:kreska pseudotaktowa	!	!	!
2BB-/	-cto	2BB-/	.	-cto	2G/	-co	[<2d\	.	2dd\	-co
!	!	!	!	!	!	!	!LO:N:xstem:cue	!	!	!
1C/	e-	1C/	-	e-	2G/	san-	4d\]	.	2ee-X\	san-
.	.	.	.	.	.	.	8c/L	.	.	.
.	.	.	.	.	.	.	8B-/J	.	.	.
!	!	!	!	!	!LO:TX:t=P:problem:kreska pseudotaktowa	!	!LO:TX:t=P:problem:kreska pseudotaktowa	!	!LO:TX:t=P:problem:kreska pseudotaktowa	!
.	.	.	.	.	2G/	-cto	2c\	.	2ee-\	-cto
=49-	=49-	=49-	=49-	=49-	=49-	=49-	=49-	=49-	=49-	=49-
!LO:TX:t=P:problem:kreska pseudotaktowa	!	!LO:TX:t=P:problem:kreska pseudotaktowa	!	!	!	!	!LO:TX:t=P:problem:kreska pseudotaktowa	!	!LO:LB:g=original	!
1GG/	-jus	1GG/	.	-jus,	2G/	e-	1Bn/,<	-jus.	2dd\	e-
!	!	!	!	!	!LO:TX:t=P:problem:kreska pseudotaktowa	!	!	!	!LO:TX:t=P:problem:kreska pseudotaktowa	!
.	.	.	.	.	2G/	-jus	.	.	2dd\	-jus
!	!	!	!	!	!LO:TX:t=P:problem:kreska pseudotaktowa	!	!	!	!	!
2r	.	2r	.	.	1r	.	2g\	In-	1r	.
!LO:TX:t=P:problem:kreska pseudotaktowa	!	!LO:TX:t=P:problem:kreska pseudotaktowa	!	!	!	!	!	!	!	!
2G\	In-	(2G\	.	in-	.	.	2d\	-no-	.	.
=50-	=50-	=50-	=50-	=50-	=50-	=50-	=50-	=50-	=50-	=50-
!	!	!	!	!	!	!	!LO:TX:t=P:problem:kreska pseudotaktowa	!	!	!
4D\	.	4D\)	.	.	2d\	in-	1f\	-cens	2r	.
4D\	-no-	4D\	.	-no-	.	.	.	.	.	.
!LO:TX:t=P:problem:kreska pseudotaktowa	!	!LO:TX:t=P:problem:kreska pseudotaktowa	!	!	!LO:TX:t=P:problem:kreska pseudotaktowa	!	!	!	!LO:TX:t=P:problem:kreska pseudotaktowa	!
2F\	-cens	2F,<\	.	-cens	2A\	-no-	.	.	[<2cc\	in-
!	!	!	!	!	!	!	!	!	!LO:N:xstem:cue	!
4C/	ma-	4C/	.	ma-	2c\	-cens	2e-X\	ma-	4cc\]	.
4C/	-ni-	4C/	.	-ni-	.	.	.	.	4cc\	-no-
!LO:TX:t=P:problem:kreska pseudotaktowa	!	!LO:TX:t=P:problem:kreska pseudotaktowa	!	!	!	!	!	!	!LO:TX:t=P:problem:kreska pseudotaktowa	!
2E-X\	-b(us)	2E-X\	.	-b(us)	4B-\	ma-	4e-\	-ni-	2g/	-cens
!	!	!	!	!	!LO:TX:t=P:problem:kreska pseudotaktowa	!	!LO:TX:t=P:problem:kreska pseudotaktowa	!	!	!
.	.	.	.	.	4B-\	-ni-	4e-\	-b(us)	.	.
=51-	=51-	=51-	=51-	=51-	=51-	=51-	=51-	=51-	=51-	=51-
4BB-/	in-	(4BB-/	.	in-	1d\,<	-b(us)	(4d\	in-	2.b-\	ma-
(<4C/	.	4C/	.	.	.	.	4e-y\	.	.	.
4D/	.	4D/	.	.	.	.	4f\	.	.	.
!LO:TX:t=P:problem:kreska pseudotaktowa	!	!LO:TX:t=P:problem:kreska pseudotaktowa	!	!	!	!	!LO:TX:t=P:problem:kreska pseudotaktowa	!	!	!
4Eny/)	.	4Eny/)	.	.	.	.	4g\)	.	4b-\	-ni-
2F\	.	2F\	.	.	2.c\	in-	2a\	.	2a\	-b(us)
!LO:TX:t=P:problem:kreska pseudotaktowa	!	!LO:TX:t=P:problem:kreska pseudotaktowa	!	!	!	!	!LO:TX:t=P:problem:kreska pseudotaktowa	!	!LO:TX:t=P:problem:kreska pseudotaktowa	!
2E-X\	-no-	2E-X\	.	-no-	.	.	2g\	-no-	[<2cc\	in-
!	!	!	!	!	!LO:TX:t=P:problem:kreska pseudotaktowa	!	!	!	!	!
!	!	!	!	!	!LO:SIC:v:t=custos A	!	!	!	!	!
.	.	.	.	.	4G/	-no-	.	.	.	.
=52-	=52-	=52-	=52-	=52-	=52-	=52-	=52-	=52-	=52-	=52-
!	!	!	!	!	!LO:LB:g=original	!	!	!	!LO:N:xstem:cue	!
2D,</	-cens	2D,</	.	-cens	2A/	-cens	2f,<\	-cens	4cc\]	.
.	.	.	.	.	.	.	.	.	4cc\	-no-
!	!	!	!	!	!	!	!	!	!LO:TX:t=P:problem:kreska pseudotaktowa	!
4D/	ma-	4D/	.	ma-	4F/	ma-	1f\	ma-	2b-\	-cens
!LO:TX:t=P:problem:kreska pseudotaktowa	!	!LO:TX:t=P:problem:kreska pseudotaktowa	!	!	!LO:TX:t=P:problem:kreska pseudotaktowa	!	!	!	!	!
4D/	-ni-	4D/	.	-ni-	4F/	-ni-	.	.	.	.
2C,</	-b(us)	2C,</	.	-b(us)	2C,</	-b(us)	.	.	2a\	ma-
!	!	!	!	!	!	!	!LO:TX:t=P:problem:kreska pseudotaktowa	!	!	!
!LO:TX:t=P:problem:kreska pseudotaktowa	!	!LO:TX:t=P:problem:kreska pseudotaktowa	!	!	!LO:TX:t=P:problem:kreska pseudotaktowa	!	!LO:SIC:v:t=custos d	!	!LO:TX:t=P:problem:kreska pseudotaktowa	!
2C/	et	2C/	.	et	2c\	et	2e-X\	-ni-	2g/	-ni-
=53-	=53-	=53-	=53-	=53-	=53-	=53-	=53-	=53-	=53-	=53-
!	!	!	!	!	!	!	!LO:LB:g=original	!	!	!
2D\	mun-	2D\	.	mun-	2c\	mun-	2d,<\	-bus	2f,</	-b(us)
!LO:TX:t=P:problem:defekt zrodla	!	!	!	!	!LO:TX:t=P:problem:kreska pseudotaktowa	!	!LO:TX:t=P:problem:kreska pseudotaktowa	!	!LO:TX:t=P:problem:kreska pseudotaktowa	!
2ryy	-do	4D\	.	-do	2B-\	-do	2d\	et	2f/	et
!	!	!LO:TX:t=P:problem:kreska pseudotaktowa	!	!	!	!	!	!	!	!
!	!	!LO:TX:t=P:problem:♭ above	!	!	!	!	!	!	!	!
.	.	4E-X\	.	.	.	.	.	.	.	.
!	!	!LO:TX:t=P:problem:kreska pseudotaktowa	!	!	!	!	!	!	!	!
1F\	cor-	1F\	.	cor-	2.B-\	cor-	1c\	mun-	2f/	mun-
.	.	.	.	.	.	.	.	.	1f/,<	-do
!	!	!	!	!	!LO:TX:t=P:problem:kreska pseudotaktowa	!	!	!	!	!
.	.	.	.	.	4A/	.	.	.	.	.
=54-	=54-	=54-	=54-	=54-	=54-	=54-	=54-	=54-	=54-	=54-
2BB-,</	-de	2BB-,</	.	-de	2B-,<\	-de	2d,<\	-do	.	.
!LO:TX:t=P:problem:kreska pseudotaktowa	!	!LO:TX:t=P:problem:kreska pseudotaktowa	!	!	!LO:TX:t=P:problem:kreska pseudotaktowa	!	!	!	!LO:TX:t=P:problem:kreska pseudotaktowa	!
2B-\	et	2BB-/	.	et	2d\	et	1f\	mun-	2b-\	et
2F\	mun-	2F\	.	mun-	2c\	mun-	.	.	1a\	mun-
!LO:TX:t=P:problem:kreska pseudotaktowa	!	!LO:TX:t=P:problem:kreska pseudotaktowa	!	!	!LO:TX:t=P:problem:kreska pseudotaktowa	!	!LO:TX:t=P:problem:kreska pseudotaktowa	!	!	!
2F\	-do	2F\	.	-do	2c\	-do	2f\	-do	.	.
=55-	=55-	=55-	=55-	=55-	=55-	=55-	=55-	=55-	=55-	=55-
2G\	Cor-	2G\	.	Cor-	2B-\	cor-	2d\	Cor-	(2g/	-do
!	!	!LO:TX:t=P:problem:kreska pseudotaktowa	!	!	!LO:TX:t=P:problem:kreska pseudotaktowa	!	!	!	!LO:TX:t=P:problem:kreska pseudotaktowa	!
2C/	.	2C/	.	.	2c\	.	2e-X\	.	2g/)	.
4BBn/	.	4BBn/	.	.	1d\	.	1d\	.	1g\	Cor-
!	!	!LO:TX:t=P:problem:kreska pseudotaktowa	!	!	!	!	!	!	!	!
2.C/	.	2.C/	.	.	.	.	.	.	.	.
=56-	=56-	=56-	=56-	=56-	=56-	=56-	=56-	=56-	=56-	=56-
!	!	!	!	!	!	!	!	!	!LO:N:xstem:cue	!
0GG/;	-de	0GG/;	.	-de	0B-\;	-de.	0d\;	-de.	0g\;	-de.
=57||	=57||	=57||	=57||	=57||	=57||	=57||	=57||	=57||	=57||	=57||
*k[]	*	*k[]	*	*	*k[]	*	*k[]	*	*k[]	*
*M3/2	*	*M3/2	*	*	*M3/2	*	*M3/2	*	*M3/2	*
!	!	!LO:LB:g=original	!	!	!	!	!	!	!	!
!LO:TX:t=P:problem:przy kluczu BBn Bn	!	!LO:TX:t=P:problem:przy kluczu BBn Bn	!	!	!LO:LB:g=original	!	!	!	!	!
2G\	Al-	2G\	.	Al-	2d\	Al-	2g\	Al-	2bn\	Al-
2G\	-le-	2G\	.	-le-	2d\	-le-	2g\	-le-	2b\	-le-
!LO:TX:t=P:problem:kreska pseudotaktowa	!	!LO:TX:t=P:problem:kreska pseudotaktowa	!	!	!LO:TX:t=P:problem:kreska pseudotaktowa	!	!LO:TX:t=P:problem:kreska pseudotaktowa	!	!LO:TX:t=P:problem:kreska pseudotaktowa	!
2C/	-lu-	2C/	.	-lu-	2e\	-lu-	2en\	-lu-	2g\	-lu-
=58-	=58-	=58-	=58-	=58-	=58-	=58-	=58-	=58-	=58-	=58-
4GG/	-ia	4GG/	.	-ia	2.d\	-ia	(1g\	-ia	1g\	-ia
4AA/	.	4AA/	.	.	.	.	.	.	.	.
4BBn/	.	4BBn/	.	.	.	.	.	.	.	.
4C/	.	4C/	.	.	4c\	.	.	.	.	.
!LO:TX:t=P:problem:kreska pseudotaktowa	!	!LO:TX:t=P:problem:kreska pseudotaktowa	!	!	!LO:TX:t=P:problem:kreska pseudotaktowa	!	!LO:TX:t=P:problem:kreska pseudotaktowa	!	!LO:TX:t=P:problem:kreska pseudotaktowa	!
2D\,<	.	2D\	.	.	2Bn\	.	2f#X\)	.	2a\	.
=59-	=59-	=59-	=59-	=59-	=59-	=59-	=59-	=59-	=59-	=59-
*	*ij	*	*	*	*	*	*	*ij	*	*
2BB/	al-	2BB/	.	al-	2d\	al-	2g\	Al-	2b\	al-
2C/	-le-	2C/	.	-le-	4c\	-le-	2.g\	-le-	2.a\	-le-
.	.	.	.	.	4B\	.	.	.	.	.
!LO:TX:t=P:problem:kreska pseudotaktowa	!	!LO:TX:t=P:problem:kreska pseudotaktowa	!	!	!LO:TX:t=P:problem:kreska pseudotaktowa	!	!	!	!	!
2D/	-lu-	2D/	.	-lu-	2A/	-lu-	.	.	.	.
!	!	!	!	!	!	!	!LO:TX:t=P:problem:kreska pseudotaktowa	!	!	!
!	!	!	!	!	!	!	!LO:TX:t=P:problem:♯ above	!	!LO:TX:t=P:problem:kreska pseudotaktowa	!
.	.	.	.	.	.	.	4f#X\	-lu-	4a\	-lu-
=60-	=60-	=60-	=60-	=60-	=60-	=60-	=60-	=60-	=60-	=60-
1G\,<	-ia	1GG/,<	.	-ia	2G,</	-ia	1g\,<	-ia	4bn\	-ia
*	*Xij	*	*	*ij	*	*	*	*Xij	*	*
.	.	.	.	.	.	.	.	.	4a\	.
.	.	.	.	.	2B\	al-	.	.	4b\	.
.	.	.	.	.	.	.	.	.	4cc\	.
!	!	!LO:TX:t=P:problem:kreska pseudotaktowa	!	!	!LO:TX:t=P:problem:kreska pseudotaktowa	!	!LO:TX:t=P:problem:kreska pseudotaktowa	!	!LO:TX:t=P:problem:kreska pseudotaktowa	!
2G\	al-	2G\	.	al-	2B\	-le-	2d\	al-	2dd\	.
=61-	=61-	=61-	=61-	=61-	=61-	=61-	=61-	=61-	=61-	=61-
!LO:LB:g=original	!	!	!	!	!	!	!LO:TX:t=P:problem:♯ above	!	!LO:LB:g=original	!
1D\	-le-	1D\	.	-le-	2.A\	-lu-	1f#X\	-le-	2dd\	Al-
.	.	.	.	.	.	.	.	.	2dd\	-le-
.	.	.	.	.	4B\	.	.	.	.	.
!LO:TX:t=P:problem:kreska pseudotaktowa	!	!LO:TX:t=P:problem:kreska pseudotaktowa	!	!	!	!	!LO:TX:t=P:problem:kreska pseudotaktowa	!	!LO:TX:t=P:problem:kreska pseudotaktowa	!
2D\	-lu-	2D\	.	-lu-	4c\	.	2f#\	-lu-	2dd\	-lu-
!	!	!	!	!	!LO:TX:t=P:problem:kreska pseudotaktowa	!	!	!	!	!
.	.	.	.	.	4A\	.	.	.	.	.
=62-	=62-	=62-	=62-	=62-	=62-	=62-	=62-	=62-	=62-	=62-
2GG/,<	-ia	1GG/,<	.	-ia	2B,<\	-ia	1g\	-ia	1bn\	-ia
*	*ij	*	*	*	*	*	*	*	*	*
2G\	al	.	.	.	2d\	al-	.	.	.	.
!LO:TX:t=P:problem:kreska pseudotaktowa	!	!LO:TX:t=P:problem:kreska pseudotaktowa	!	!	!LO:TX:t=P:problem:kreska pseudotaktowa	!	!LO:TX:t=P:problem:kreska pseudotaktowa	!	!LO:TX:t=P:problem:kreska pseudotaktowa	!
*	*	*	*	*Xij	*	*	*	*ij	*	*ij
2C/	-	2C/	.	al-	2e\	-le-	2e\	al-	2cc\	Al-
=63-	=63-	=63-	=63-	=63-	=63-	=63-	=63-	=63-	=63-	=63-
1D\	-le-	1D\	.	-le-	2.d\	-lu-	1d\	-le-	1a\	-le-
.	.	.	.	.	4c\	.	.	.	.	.
!	!	!	!	!	!	!	!	!	!LO:TX:t=P:problem:kreska pseudotaktowa	!
2D\	-lu-	2D\	.	-lu-	4B\	.	2d\	-lu-	2a\	-lu-
!	!	!	!	!	!LO:TX:t=P:problem:kreska pseudotaktowa	!	!	!	!	!
.	.	.	.	.	4A\	.	.	.	.	.
=64-	=64-	=64-	=64-	=64-	=64-	=64-	=64-	=64-	=64-	=64-
*M2/1	*	*M2/1	*	*	*M2/1	*	*M2/1	*	*M2/1	*
*met(c|)	*	*met(c|)	*	*	*met(c|)	*	*met(c|)	*	*met(c|)	*
!LO:TX:t=P:problem:kreska pseudotaktowa	!	!LO:TX:t=P:problem:kreska pseudotaktowa	!	!	!	!	!LO:TX:t=P:problem:kreska pseudotaktowa	!	!LO:TX:t=P:problem:kreska pseudotaktowa	!
2G\,<	-ia	1GG/	.	-ia	2B,<\	-ia	0d\	-ia	1bn\,<	-ia
*	*Xij	*	*	*	*	*	*	*Xij	*	*Xij
!	!	!	!	!	!LO:TX:t=P:problem:kreska pseudotaktowa	!	!	!	!	!
1GG/	al-	.	.	.	2G/	al-	.	.	.	.
.	.	2GG/	.	al-	2.B\	-le-	.	.	2g/	al-
!LO:TX:t=P:problem:kreska pseudotaktowa	!	!LO:TX:t=P:problem:kreska pseudotaktowa	!	!	!	!	!	!	!	!
[<2G\	.	[<2G\	.	.	.	.	.	.	2.dd\	-le-
.	.	.	.	.	4c\	.	.	.	.	.
=65-	=65-	=65-	=65-	=65-	=65-	=65-	=65-	=65-	=65-	=65-
!LO:N:xstem:cue	!	!LO:N:xstem:cue	!	!	!	!	!LO:LB:g=original	!	!	!
4G\]	.	4G\]	.	.	4d\	.	2re	.	.	.
4F\	.	4F\	.	.	4c\	.	.	.	4cc\	.
4E\	.	4E\	.	.	4B\	.	4g\	al-	4b\	.
!LO:TX:t=P:problem:kreska pseudotaktowa	!	!LO:TX:t=P:problem:kreska pseudotaktowa	!	!	!LO:TX:t=P:problem:kreska pseudotaktowa	!	!LO:TX:t=P:problem:kreska pseudotaktowa	!	!LO:TX:t=P:problem:kreska pseudotaktowa	!
4D\	.	4D\	.	.	4A\	.	4fny\	.	4a\	.
2C/	-le-	2C/	.	-le-	2G/	lu-	4e\	.	2g/	-lu-
.	.	.	.	.	.	.	4d\	.	.	.
!	!	!	!	!	!LO:TX:t=P:problem:kreska pseudotaktowa	!	!	!	!	!
!LO:TX:t=P:problem:kreska pseudotaktowa	!	!LO:TX:t=P:problem:kreska pseudotaktowa	!	!	!LO:SIC:v:t=custos c	!	!LO:TX:t=P:problem:kreska pseudotaktowa	!	!LO:TX:t=P:problem:kreska pseudotaktowa	!
2C/	-lu-	2C/	.	-lu-	[<2c\	-ia	2c/	.	2g/	-ia
=66-	=66-	=66-	=66-	=66-	=66-	=66-	=66-	=66-	=66-	=66-
!	!	!	!	!	!LO:N:xstem:cue	!	!	!	!	!
!	!	!	!	!	!LO:TX:t=P:problem:brak zakonczenia ligatury	!	!	!	!	!
4GG/	-ia	4GG/	.	-ia	4c\]	.	1d\	.	4bn\	al-
4AA,</	.	4AA,</	.	.	4c\	.	.	.	4cc\	.
4BB/	al-	4BB/	.	al-	4d\	.	.	.	4dd\	.
!LO:TX:t=P:problem:kreska pseudotaktowa	!	!	!	!	!	!	!	!	!LO:TX:t=P:problem:kreska pseudotaktowa	!
4GG/	.	4GG/	.	.	8c\L	.	.	.	4b\	.
!	!	!	!	!	!LO:TX:t=P:problem:kreska pseudotaktowa	!	!	!	!	!
.	.	.	.	.	8B\J	.	.	.	.	.
1.D\	-le-	1.D\	.	-le-	2.A/	.	2.d\	le-	2a\	.
.	.	.	.	.	.	.	.	.	4b\	-le-
!	!	!	!	!	!	!	!LO:TX:t=P:problem:kreska pseudotaktowa	!	!LO:TX:t=P:problem:kreska pseudotaktowa	!
.	.	.	.	.	2d\	al-	4e\	.	4cc\	.
=67-	=67-	=67-	=67-	=67-	=67-	=67-	=67-	=67-	=67-	=67-
!	!	!	!	!	!	!	!LO:TX:t=P:problem:♯ above	!	!	!
.	.	.	.	.	.	.	2f#X\	-lu-	1dd\	-lu-
.	.	.	.	.	8c\L	-le-	.	.	.	.
.	.	.	.	.	8B\J	.	.	.	.	.
!	!	!LO:TX:t=P:problem:kreska pseudotaktowa	!	!	!LO:TX:t=P:problem:kreska pseudotaktowa	!	!	!	!	!
2D\	-lu-	2D/	.	-lu-	2A/	-lu-	2d\	.	.	.
!LO:N:vis=0	!	!	!	!	!LO:N:vis=0	!	!LO:N:vis=0	!	!	!
1GG/;	-ia.	1GG/;	.	-ia.	1Bn\;	-ia.	1d\;	-ia.	1bn\;	-ia.
=68||	=68||	=68||	=68||	=68||	=68||	=68||	=68||	=68||	=68||	=68||
*M3/2	*	*M3/1	*	*	*M3/1	*	*M3/1	*	*M3/1	*
*rscale:1/2	*	*	*	*	*	*	*	*	*	*
!LO:PB:g=original	!	!LO:LB:g=original	!	!	!	!	!	!	!	!
1G\	A-	1G\	.	A-	1d\	A-	1g\	A-	1bn\	A-
1G\	-ve	1G\	.	-ve	1d\	-ve	(2g\	-ve	1dd\	-ve
.	.	.	.	.	.	.	2f\)	.	.	.
!LO:TX:t=P:problem:kreska pseudotaktowa	!	!LO:TX:t=P:problem:kreska pseudotaktowa	!	!	!LO:TX:t=P:problem:kreska pseudotaktowa	!	!	!	!LO:TX:t=P:problem:kreska pseudotaktowa	!
1GG/	Ma-	1GG/	.	Ma-	1d\	Ma-	(2g\	Ma-	1b\	Ma-
!	!	!	!	!	!	!	!LO:TX:t=P:problem:kreska pseudotaktowa	!	!	!
.	.	.	.	.	.	.	2a\)	.	.	.
=69-	=69-	=69-	=69-	=69-	=69-	=69-	=69-	=69-	=69-	=69-
1C/	-ri-	1C/	.	-ri-	1c\	-ri-	1g\	-ri-	1ee\	-ri-
1C/,<	-a	1C/,<	.	-a	1c\,<	-a	1g\,<	-a	1cc\,<	-a
!LO:TX:t=P:problem:kreska pseudotaktowa	!	!LO:TX:t=P:problem:kreska pseudotaktowa	!	!	!LO:TX:t=P:problem:kreska pseudotaktowa	!	!LO:TX:t=P:problem:kreska pseudotaktowa	!	!LO:TX:t=P:problem:kreska pseudotaktowa	!
*	*ij	*	*	*ij	*	*ij	*	*ij	*	*ij
1C/	Ma-	1C/	.	Ma-	1c\	Ma-	1g\	Ma-	1ee\	Ma-
=70-	=70-	=70-	=70-	=70-	=70-	=70-	=70-	=70-	=70-	=70-
0G\	-ri-	0G\	.	-ri-	0d\	-ri-	0g\	-ri-	0dd\	-ri-
!LO:TX:t=P:problem:kreska pseudotaktowa	!	!LO:TX:t=P:problem:kreska pseudotaktowa	!	!	!LO:TX:t=P:problem:kreska pseudotaktowa	!	!LO:TX:t=P:problem:kreska pseudotaktowa	!	!LO:TX:t=P:problem:kreska pseudotaktowa	!
1GG/	-a	1GG/	.	-a	1d\,<	-a	1g\,<	-a	1dd\,<	-a
*	*Xij	*	*	*Xij	*	*Xij	*	*Xij	*	*Xij
=71-	=71-	=71-	=71-	=71-	=71-	=71-	=71-	=71-	=71-	=71-
!	!	!	!	!	!	!	!LO:TX:t=P:problem:♯ above	!	!	!
0D\	A-	0D\	.	A-	0d\	A-	0f#X\	A-	0a\	a-
!	!	!	!	!	!	!	!	!	!LO:TX:t=P:problem:kreska pseudotaktowa	!
!LO:TX:t=P:problem:kreska pseudotaktowa	!	!LO:TX:t=P:problem:kreska pseudotaktowa	!	!	!LO:TX:t=P:problem:kreska pseudotaktowa	!	!LO:TX:t=P:problem:kreska pseudotaktowa	!	!LO:SIC:v:t=custos dd	!
1D\	-ve	1D\	.	-ve	1d\	-ve	1f#\	-ve	1a\	-ve
=72-	=72-	=72-	=72-	=72-	=72-	=72-	=72-	=72-	=72-	=72-
!	!	!	!	!	!	!	!	!	!LO:LB:g=original	!
*	*ij	*	*	*ij	*	*ij	*	*	*	*
1D\	A-	1D\	.	A-	1d\	A-	1f#X\	A-	1dd\	a-
1D\,<	-ve	1D\,<	.	-ve	(2d\	-ve	(2f#\	-ve	1dd\	-ve
*	*Xij	*	*	*Xij	*	*Xij	*	*	*	*
!	!	!	!	!	!LO:SIC:v:s=2B-	!	!	!	!	!
.	.	.	.	.	2c\)	.	2d\)	.	.	.
!LO:TX:t=P:problem:kreska pseudotaktowa	!	!LO:TX:t=P:problem:kreska pseudotaktowa	!	!	!LO:SIC:v:s=2c	!	!	!	!LO:TX:t=P:problem:kreska pseudotaktowa	!
1D\	Ma-	1D\	.	Ma-	(2d\	Ma-	(2e\	Ma-	1dd\	Ma-
!	!	!	!	!	!LO:TX:t=P:problem:kreska pseudotaktowa	!	!	!	!	!
!	!	!	!	!	!LO:SIC:v:s=2d	!	!LO:TX:t=P:problem:kreska pseudotaktowa	!	!	!
.	.	.	.	.	2e\)	.	2f#\)	.	.	.
=73-	=73-	=73-	=73-	=73-	=73-	=73-	=73-	=73-	=73-	=73-
0G\	-ri-	0G\	.	-ri-	0d\	-ri-	0g\	-ri-	0dd\	-ri-
!	!	!	!	!	!	!	!LO:TX:t=P:problem:kreska pseudotaktowa	!	!	!
!LO:TX:t=P:problem:kreska pseudotaktowa	!	!LO:TX:t=P:problem:kreska pseudotaktowa	!	!	!LO:TX:t=P:problem:kreska pseudotaktowa	!	!LO:SIC:v:t=custos fn	!	!LO:TX:t=P:problem:kreska pseudotaktowa	!
1E\	-a	1E\	.	-a	1e\	-a	1g\	-a	1cc\,<	-a
=74-	=74-	=74-	=74-	=74-	=74-	=74-	=74-	=74-	=74-	=74-
!	!	!	!	!	!	!	!LO:LB:g=original	!	!	!
1.F\	gra-	1.F\	.	gra-	1.c\	gra-	1.fn\	Gra-	1.cc\	gra-
!	!	!LO:SIC:v:s=2E	!	!	!	!	!	!	!	!
2E\	-ti-	2F\	.	-ti-	2c\	-ti-	2f\	-ti-	2cc\	-ti-
!LO:TX:t=P:problem:kreska pseudotaktowa	!	!LO:TX:t=P:problem:kreska pseudotaktowa	!	!	!LO:TX:t=P:problem:kreska pseudotaktowa	!	!LO:TX:t=P:problem:kreska pseudotaktowa	!	!LO:TX:t=P:problem:kreska pseudotaktowa	!
1D\	-a	1D\	.	-a	1d\	-a	1f\	-a	1b\	-a
=75-	=75-	=75-	=75-	=75-	=75-	=75-	=75-	=75-	=75-	=75-
!	!	!	!	!	!LO:LB:g=original	!	!LO:TX:t=P:problem:skreślony dźwięk	!	!	!
0E\	ple-	0E\	.	ple-	0B\	ple-	0e\	ple-	0b\	ple-
!LO:TX:t=P:problem:kreska pseudotaktowa	!	!LO:TX:t=P:problem:kreska pseudotaktowa	!	!	!LO:TX:t=P:problem:kreska pseudotaktowa	!	!LO:TX:t=P:problem:kreska pseudotaktowa	!	!LO:TX:t=P:problem:kreska pseudotaktowa	!
1AA/	-na	1AA/	.	-na	1e\	-na	1e\	-na	1cc\,<	-na
=76-	=76-	=76-	=76-	=76-	=76-	=76-	=76-	=76-	=76-	=76-
1.F\	Do-	1.F\	.	Do-	1.c\	Do-	1.fn\	Do-	1.cc\	Do-
!	!	!LO:SIC:v:s=2E	!	!	!	!	!	!	!	!
2E\	-mi-	2F\	.	-mi-	2c\	-mi-	2f\	-mi-	2cc\	-mi-
!LO:TX:t=P:problem:kreska pseudotaktowa	!	!LO:TX:t=P:problem:kreska pseudotaktowa	!	!	!LO:TX:t=P:problem:kreska pseudotaktowa	!	!LO:TX:t=P:problem:kreska pseudotaktowa	!	!LO:TX:t=P:problem:kreska pseudotaktowa	!
1D\	-n(us)	1D\	.	-n(us)	1f\	-n(us)	1f\	-n(us)	1cc\	-n(us)
=77-	=77-	=77-	=77-	=77-	=77-	=77-	=77-	=77-	=77-	=77-
!	!	!	!	!	!LO:TX:t=P:problem:kreska pseudotaktowa	!	!	!	!	!
*	*	*	*	*	*	*	*lig	*	*	*
0A\	Te-	(0A\	.	Te-	0.e\	Te-	1f\	Te-	0dd\	Te-
*	*	*	*	*	*	*	*col	*	*	*
!	!	!	!	!	!	!	!LO:N:vis=1.	!	!	!
.	.	.	.	.	.	.	1a\	.	.	.
*	*	*	*	*	*	*	*Xlig	*	*	*
!LO:TX:t=P:problem:kreska pseudotaktowa	!	!LO:TX:t=P:problem:kreska pseudotaktowa	!	!	!	!	!	!	!	!
*	*	*	*	*	*	*	*Xcol	*	*	*
!	!	!	!	!	!	!	!	!	!LO:TX:t=P:problem:kreska pseudotaktowa	!
1AA/	.	1AA/)	.	.	.	.	4g\	.	1cc\	.
.	.	.	.	.	.	.	4f\	.	.	.
!	!	!	!	!	!	!	!LO:TX:t=P:problem:kreska pseudotaktowa	!	!	!
.	.	.	.	.	.	.	2e\	.	.	.
=78-	=78-	=78-	=78-	=78-	=78-	=78-	=78-	=78-	=78-	=78-
!	!	!	!	!	!	!	!LO:TX:t=P:problem:♯ above	!	!	!
1D\,<	-cum	1D\,<	.	-cum	1d\,<	-cum,	1f#X\,<	-cum	1dd\,	-cum
!LO:LB:g=original	!	!	!	!	!	!	!	!	!	!
2D/	Do-	2D\	.	Do-	2A\	Do-	2f#\	Do-	2dd\	Do-
!	!	!LO:SIC:v:s=2C	!	!	!	!	!	!	!	!
2C/	-mi-	2D\	.	-mi-	2A\	-mi-	2f#\	-mi-	2dd\	-mi-
!LO:TX:t=P:problem:kreska pseudotaktowa	!	!LO:TX:t=P:problem:kreska pseudotaktowa	!	!	!LO:TX:t=P:problem:kreska pseudotaktowa	!	!LO:TX:t=P:problem:kreska pseudotaktowa	!	!LO:TX:t=P:problem:kreska pseudotaktowa	!
1BB/	-n(us)	1BB/	.	-n(us)	1B\	-n(us)	1g\	-n(us)	1dd\	-n(us)
=79-	=79-	=79-	=79-	=79-	=79-	=79-	=79-	=79-	=79-	=79-
!	!	!LO:TX:t=P:problem:kreska pseudotaktowa	!	!	!LO:TX:t=P:problem:kreska pseudotaktowa	!	!	!	!LO:TX:t=P:problem:kreska pseudotaktowa	!
0.D\	Te-	0.D\	.	Te-	0.A\	Te-	0g\	Te-	0.dd\	Te-
!	!	!	!	!	!	!	!LO:TX:t=P:problem:kreska pseudotaktowa	!	!	!
!	!	!	!	!	!	!	!LO:TX:t=P:problem:♯ above	!	!	!
.	.	.	.	.	.	.	1f#X\,<	-cum:	.	.
=80-	=80-	=80-	=80-	=80-	=80-	=80-	=80-	=80-	=80-	=80-
1GG/,<	-cum	1GG/,<	.	-cum	1G/,<	-cum.	1g\	Be-	1dd\,<	-cum:
1C/	be-	1C/	.	be-	1e\	be-	1g\	-ne-	1cc\	be-
!LO:TX:t=P:problem:kreska pseudotaktowa	!	!LO:TX:t=P:problem:kreska pseudotaktowa	!	!	!LO:TX:t=P:problem:kreska pseudotaktowa	!	!LO:TX:t=P:problem:kreska pseudotaktowa	!	!LO:TX:t=P:problem:kreska pseudotaktowa	!
1C/	-ne-	1C/	.	-ne-	1e\	-ne-	1g\	-di-	1ccn\	-ne-
=81-	=81-	=81-	=81-	=81-	=81-	=81-	=81-	=81-	=81-	=81-
!	!	!LO:LB:g=original	!	!	!	!	!	!	!	!
1.G\	-di-	1.G\	.	-di-	1d\	-di-	0g\	-cta	1b\	-di-
.	.	.	.	.	1d\	-cta	.	.	1b\,<	-cta
2G\	-cta	2G\	.	-cta	.	.	.	.	.	.
!LO:TX:t=P:problem:kreska pseudotaktowa	!	!LO:TX:t=P:problem:kreska pseudotaktowa	!	!	!LO:TX:t=P:problem:kreska pseudotaktowa	!	!LO:TX:t=P:problem:kreska pseudotaktowa	!	!LO:TX:t=P:problem:kreska pseudotaktowa	!
1C/	Tu	1C/	.	Tu	1c\	Tu	1g\	Tu	1cc\	Tu
=82-	=82-	=82-	=82-	=82-	=82-	=82-	=82-	=82-	=82-	=82-
1C/	in	1C/	.	in	1e\	in	1g\	in	1cc\	in
1C/	mu-	1C/	.	mu-	1e\	mu-	1e\	mu-	1.cc\	mu-
!LO:TX:t=P:problem:kreska pseudotaktowa	!	!LO:TX:t=P:problem:kreska pseudotaktowa	!	!	!LO:TX:t=P:problem:kreska pseudotaktowa	!	!LO:TX:t=P:problem:kreska pseudotaktowa	!	!	!
1AA/	-li-	1AA/	.	-li-	1c\	-li-	1e\	-li-	.	.
!	!	!	!	!	!	!	!	!	!LO:TX:t=P:problem:kreska pseudotaktowa	!
.	.	.	.	.	.	.	.	.	2a\	-li-
=83-	=83-	=83-	=83-	=83-	=83-	=83-	=83-	=83-	=83-	=83-
1.E\	-e-	1.E\	.	-e-	1.B\	-e-	1.e\	-e-	1.g\	-e-
2E\	-ri-	2E\	.	-ri-	2B\	-ri-	2e\	-ri-	2g\	-ri-
!	!	!	!	!	!	!	!	!	!LO:TX:t=P:problem:kreska pseudotaktowa	!
!	!	!	!	!	!	!	!LO:TX:t=P:problem:kreska pseudotaktowa	!	!LO:SIC:v:t=custos dd	!
!LO:TX:t=P:problem:kreska pseudotaktowa	!	!LO:TX:t=P:problem:kreska pseudotaktowa	!	!	!LO:TX:t=P:problem:kreska pseudotaktowa	!	!LO:SIC:v:t=custos f	!	!LO:SIC:v:t=custos b	!
1AA/	-bus	1AA/	.	-bus	1B\	-bus	1e\	-bus	1a\	-bus
=84-	=84-	=84-	=84-	=84-	=84-	=84-	=84-	=84-	=84-	=84-
!	!	!	!	!	!	!	!LO:PB:g=original	!	!LO:LB:g=original	!
!	!	!	!	!	!	!	!LO:TX:t=P:problem:♯ above	!	!	!
1D\	et	1D\	.	et	1A\	et	1f#X\	et	1dd\	et
1D\	be-	1D\	.	be-	1A\	be-	(2f#\	be-	1dd\	be-
.	.	.	.	.	.	.	2d\)	.	.	.
!LO:TX:t=P:problem:kreska pseudotaktowa	!	!LO:TX:t=P:problem:kreska pseudotaktowa	!	!	!LO:TX:t=P:problem:kreska pseudotaktowa	!	!	!	!LO:TX:t=P:problem:kreska pseudotaktowa	!
1D\	-ne-	1D\	.	-ne-	1A\	-ne-	(2e\	-ne-	1dd\	-ne-
!	!	!	!	!	!	!	!LO:TX:t=P:problem:kreska pseudotaktowa	!	!	!
.	.	.	.	.	.	.	2f#\)	.	.	.
=85-	=85-	=85-	=85-	=85-	=85-	=85-	=85-	=85-	=85-	=85-
0G\	-di-	0G\	.	-di-	0B\	-di-	0g\	-di-	0cc\	-di-
!LO:TX:t=P:problem:kreska pseudotaktowa	!	!LO:TX:t=P:problem:kreska pseudotaktowa	!	!	!	!	!LO:TX:t=P:problem:kreska pseudotaktowa	!	!LO:TX:t=P:problem:kreska pseudotaktowa	!
1E\	-ct(us)	1E\	.	-ct(us)	1G/,<	-ctus	1g\	-ctus	1dd\	-ct(us)
=86-	=86-	=86-	=86-	=86-	=86-	=86-	=86-	=86-	=86-	=86-
!	!	!	!	!	!	!	!LO:TX:t=P:problem:♮ above	!	!	!
*	*	*	*	*	*	*	*	*	*lig	*
0D\	Fru-	0D\	.	Fru-	0A\	Fru-	0fn\	Fru-	1a\	Fru-
.	.	.	.	.	.	.	.	.	1dd\	.
*	*	*	*	*	*	*	*	*	*Xlig	*
!LO:TX:t=P:problem:kreska pseudotaktowa	!	!LO:TX:t=P:problem:kreska pseudotaktowa	!	!	!LO:TX:t=P:problem:kreska pseudotaktowa	!	!LO:TX:t=P:problem:kreska pseudotaktowa	!	!LO:TX:t=P:problem:kreska pseudotaktowa	!
1E\	-ct(us)	1E\	.	-ct(us)	1G/	-ct(us)	1f\	-ct(us)	1b\,<	-ct(us)
=87-	=87-	=87-	=87-	=87-	=87-	=87-	=87-	=87-	=87-	=87-
!	!	!	!	!	!LO:LB:g=original	!	!	!	!	!
1D\	Ven-	1D\	.	Ven-	1F/	Ven-	1d\	Ven-	1dd\	Ven-
(2D/	-tris	(2D/	.	-tris	(2F/	-tris	(2d\	.	(2dd\	-tris
2GG/)	.	2GG/)	.	.	2G/)	.	2e\)	.	2b\)	.
!	!	!	!	!	!	!	!LO:TX:t=P:problem:kreska pseudotaktowa	!	!	!
!LO:TX:t=P:problem:kreska pseudotaktowa	!	!LO:TX:t=P:problem:kreska pseudotaktowa	!	!	!LO:TX:t=P:problem:kreska pseudotaktowa	!	!LO:TX:t=P:problem:♯ above	!	!LO:TX:t=P:problem:kreska pseudotaktowa	!
1AA/	Tu-	1AA/	.	tu-	1E/	Tu-	1c#X\	-tris	1a\	Tu-
=88-	=88-	=88-	=88-	=88-	=88-	=88-	=88-	=88-	=88-	=88-
1D\,<	-i	1D\,<	.	-i	1.D/	-i	1d\	Tu-	1a\,<	-i,
1G\	be-	1G\	.	be-	.	.	1g\	-i	1b\	be-
.	.	.	.	.	2c\	et	.	.	.	.
!LO:SIC:v:t=custos G	!	!	!	!	!	!	!	!	!	!
!LO:TX:t=P:problem:kreska pseudotaktowa	!	!LO:TX:t=P:problem:kreska pseudotaktowa	!	!	!	!	!	!	!LO:TX:t=P:problem:kreska pseudotaktowa	!
1E\	-ne-	1E\	.	-ne-	2c\	be-	2g\	be-	1cc\	-ne-
!	!	!	!	!	!LO:TX:t=P:problem:kreska pseudotaktowa	!	!LO:TX:t=P:problem:kreska pseudotaktowa	!	!	!
.	.	.	.	.	2c\	-ne-	2g\	-ne-	.	.
=89-	=89-	=89-	=89-	=89-	=89-	=89-	=89-	=89-	=89-	=89-
!LO:LB:g=original	!	!	!	!	!	!	!	!	!	!
0G\	-di-	0G\	.	-di-	0B\	-di-	0g\	-di-	0dd\	-di-
!LO:TX:t=P:problem:kreska pseudotaktowa	!	!LO:TX:t=P:problem:kreska pseudotaktowa	!	!	!LO:TX:t=P:problem:kreska pseudotaktowa	!	!LO:TX:t=P:problem:kreska pseudotaktowa	!	!LO:TX:t=P:problem:kreska pseudotaktowa	!
1G\	-ct(us)	1G\	.	-ct(us)	1B\	-ctus	1g\	-ct(us)	1dd\	-ctus
=90-	=90-	=90-	=90-	=90-	=90-	=90-	=90-	=90-	=90-	=90-
0C/	Fru-	0C/	.	Fru-	(0e\	Fru-	1.g\	Fru-	0cc\	Fru-
.	.	.	.	.	.	.	2f\	.	.	.
!	!	!	!	!	!LO:TX:t=P:problem:kreska pseudotaktowa	!	!	!	!LO:TX:t=P:problem:kreska pseudotaktowa	!
1GG/	-ct(us)	1GG/	.	-ct(us)	1d\)	.	2g\	-ctus	1dd\	-ct(us)
!	!	!	!	!	!	!	!LO:TX:t=P:problem:kreska pseudotaktowa	!	!	!
.	.	.	.	.	.	.	2f\	.	.	.
=91-	=91-	=91-	=91-	=91-	=91-	=91-	=91-	=91-	=91-	=91-
*	*ij	*	*	*ij	*	*	*	*	*	*
0AA/	Fru-	0AA/	.	Fru-	1c\,	-ctus	0e\	Ven-	0a\	Ven-
.	.	.	.	.	1c\	Ven-	.	.	.	.
!LO:TX:t=P:problem:kreska pseudotaktowa	!	!LO:TX:t=P:problem:kreska pseudotaktowa	!	!	!LO:TX:t=P:problem:kreska pseudotaktowa	!	!LO:TX:t=P:problem:kreska pseudotaktowa	!	!LO:TX:t=P:problem:kreska pseudotaktowa	!
1E\	-ctus	1E\	.	-ctus	1B\	-tris	1e\	-tris	1b\	-tris
*	*Xij	*	*	*Xij	*	*	*	*	*	*
=92-	=92-	=92-	=92-	=92-	=92-	=92-	=92-	=92-	=92-	=92-
1C/	Ven-	1C/	.	Ven-	(1.c\	Tu-	1g\	Tu-	1ee\	Ven-
(2C/	-tris	(2C/	.	-tris	.	.	[2g\	-i	(2ee\	-tris
2GG/)	.	2GG/)	.	.	2B\)	.	2g\]	.	2dd\)	.
!LO:TX:t=P:problem:kreska pseudotaktowa	!	!LO:TX:t=P:problem:kreska pseudotaktowa	!	!	!LO:TX:t=P:problem:kreska pseudotaktowa	!	!LO:TX:t=P:problem:kreska pseudotaktowa	!	!LO:TX:t=P:problem:kreska pseudotaktowa	!
1D\	Tu-	1D\	.	Tu-	1A\	.	1f#X\	Fru-	1dd\	tu-
=93-	=93-	=93-	=93-	=93-	=93-	=93-	=93-	=93-	=93-	=93-
1GG/,<	-i.	1GG/,<	.	-i.	1G/,<	-i.	1g\,	-ctus	0dd\,<	-i
*	*	*	*	*	*	*	*	*ij	*	*
1C/	Fru-	1C/	.	Fru-	1G/	Fru-	2e\	Fru-	.	.
.	.	.	.	.	.	.	2e\	-ctus	.	.
*	*	*	*	*	*	*	*	*Xij	*	*
!LO:TX:t=P:problem:kreska pseudotaktowa	!	!LO:TX:t=P:problem:kreska pseudotaktowa	!	!	!LO:TX:t=P:problem:kreska pseudotaktowa	!	!LO:TX:t=P:problem:kreska pseudotaktowa	!	!LO:TX:t=P:problem:kreska pseudotaktowa	!
1C/	-ct(us)	1C/	.	-ct(us)	1G/	-ct(us)	1e\	Ven-	[<1cc\	Fru-
=94-	=94-	=94-	=94-	=94-	=94-	=94-	=94-	=94-	=94-	=94-
!	!	!LO:LB:g=original	!	!	!	!	!	!	!	!
0F\	Ven-	0F\	.	Ven-	0A\	Ven-	(0fny\	tris	1cc\]	.
.	.	.	.	.	.	.	.	.	0cc\	-ctus
!	!	!	!	!	!LO:TX:t=P:problem:kreska pseudotaktowa	!	!LO:TX:t=P:problem:kreska pseudotaktowa	!	!	!
!LO:TX:t=P:problem:kreska pseudotaktowa	!	!LO:TX:t=P:problem:kreska pseudotaktowa	!	!	!LO:SIC:v:t=custos F	!	!LO:SIC:v:t=custos d	!	!	!
1C/	-tris	1C/	.	-tris	1G/	-tris	1e\)	.	.	.
=95-	=95-	=95-	=95-	=95-	=95-	=95-	=95-	=95-	=95-	=95-
!	!	!	!	!	!LO:PB:g=original	!	!LO:LB:g=original	!	!	!
1.D\	Tu-	(1.D\	.	Tu-	1.F/	Tu-	1d\	Tu-	1.a\	Ven-
.	.	.	.	.	.	.	1cny\	.	.	.
2E\	.	2E\	.	.	2E/	.	.	.	2dd,<\	-tris
!	!	!	!	!	!	!	!	!	!LO:SIC:v:t=custos cc	!
2F\	.	2F\)	.	.	1D/	.	1d\	.	1b\	Tu-
2G\	.	2G\	.	.	.	.	.	.	.	.
*rscale:1	*	*	*	*	*	*	*	*	*	*
=96-	=96-	=96-	=96-	=96-	=96-	=96-	=96-	=96-	=96-	=96-
*M2/1	*	*M2/1	*	*	*M2/1	*	*M2/1	*	*M2/1	*
*met(c|)	*	*met(c|)	*	*	*met(c|)	*	*met(c|)	*	*met(c|)	*
!	!	!	!	!	!	!	!	!	!LO:LB:g=original	!
2C,</	-i	2C,</	.	-i	2C,</	-i	2e,<\	i,	2cc,<\	-i
!	!	!	!	!	!LO:TX:t=P:problem:kreska pseudotaktowa	!	!	!	!	!
1C/	al-	1C/	.	al-	2c\	al-	1e\	Al-	1g\	Al-
.	.	.	.	.	2c\	-le-	.	.	.	.
!LO:TX:t=P:problem:kreska pseudotaktowa	!	!LO:TX:t=P:problem:kreska pseudotaktowa	!	!	!	!	!LO:TX:t=P:problem:kreska pseudotaktowa	!	!LO:TX:t=P:problem:kreska pseudotaktowa	!
2BB/	-le-	2BB/	.	-le-	2.d\	.	2d\	-le-	2b\	-le-
=97-	=97-	=97-	=97-	=97-	=97-	=97-	=97-	=97-	=97-	=97-
!	!	!	!	!	!	!	!	!	!LO:TX:t=P:problem:kreska pseudotaktowa	!
1D\	-lu-	1D\	.	-lu-	.	.	1d\	-lu-	1a\	-lu-
.	.	.	.	.	8c\L	.	.	.	.	.
.	.	.	.	.	8B\J	.	.	.	.	.
!	!	!	!	!	!LO:TX:t=P:problem:kreska pseudotaktowa	!	!	!	!	!
.	.	.	.	.	2A/	-lu-	.	.	.	.
2GG,</	-ia	2GG,</	.	-ia	2G/	-ia	4d\	-ia	2g/	-ia
.	.	.	.	.	.	.	4B\	.	.	.
!LO:TX:t=P:problem:kreska pseudotaktowa	!	!LO:TX:t=P:problem:kreska pseudotaktowa	!	!	!	!	!LO:TX:t=P:problem:kreska pseudotaktowa	!	!	!
*	*ij	*	*	*	*	*	*	*	*	*
2C/	al-	2C/	.	al-	4r	.	2e\	Al-	4r	.
!	!	!	!	!	!LO:TX:t=P:problem:kreska pseudotaktowa	!	!	!	!LO:TX:t=P:problem:kreska pseudotaktowa	!
.	.	.	.	.	4G/	al-	.	.	4e/	al-
=98-	=98-	=98-	=98-	=98-	=98-	=98-	=98-	=98-	=98-	=98-
2AA/	-le-	2AA/	.	-le-	2c\	-le-	2c\	.	2a\	-le-
!	!	!LO:TX:t=P:problem:kreska pseudotaktowa	!	!	!LO:TX:t=P:problem:kreska pseudotaktowa	!	!LO:TX:t=P:problem:kreska pseudotaktowa	!	!LO:TX:t=P:problem:kreska pseudotaktowa	!
2D/	-lu-	2D\	.	-lu-	2A/	-lu-	2f\	.	2f/	-lu-
2BB,</	-ia	2BB,</	.	-ia	2d,<\	-ia	2d\	-le-	2b\	-ia
!	!	!	!	!	!	!	!LO:TX:t=P:problem:kreska pseudotaktowa	!	!LO:TX:t=P:problem:kreska pseudotaktowa	!
*	*Xij	*	*	*ij	*	*ij	*	*	*	*
!LO:TX:t=P:problem:kreska pseudotaktowa	!	!	!	!	!	!	!	!	!	!
2E\	al-	2E\	.	al-	2B\	al-	2g\	.	2g/	.
=99-	=99-	=99-	=99-	=99-	=99-	=99-	=99-	=99-	=99-	=99-
2C/	-le-	2C/	.	-le-	2e\	-le-	2e\	-lu-	2cc\	al-
!	!	!LO:TX:t=P:problem:kreska pseudotaktowa	!	!	!LO:TX:t=P:problem:kreska pseudotaktowa	!	!LO:TX:t=P:problem:kreska pseudotaktowa	!	!LO:TX:t=P:problem:kreska pseudotaktowa	!
2F\	-lu-	2F\	.	-lu-	2c\	-lu-	2a\	.	2a\	-le-
2D,<\	-ia	2D,<\	.	-ia	2f,<\	-ia	2f\	-ia	2dd\	.
*	*	*	*	*Xij	*	*Xij	*	*	*	*
!LO:TX:t=P:problem:kreska pseudotaktowa	!	!	!	!	!	!	!LO:TX:t=P:problem:kreska pseudotaktowa	!	!LO:TX:t=P:problem:kreska pseudotaktowa	!
2G\	al-	2G\	.	al-	2d\	al-	2r	.	2b\	.
=100-	=100-	=100-	=100-	=100-	=100-	=100-	=100-	=100-	=100-	=100-
!LO:LB:g=original	!	!	!	!	!	!	!LO:TX:t=P:problem:kreska pseudotaktowa	!	!	!
2E\	-le-	2E\	.	-le-	2g\	-le-	1r	.	4.ee\	.
.	.	.	.	.	.	.	.	.	8dd\	-lu-
!LO:TX:t=P:problem:kreska pseudotaktowa	!	!LO:TX:t=P:problem:kreska pseudotaktowa	!	!	!	!	!	!	!LO:TX:t=P:problem:kreska pseudotaktowa	!
2A\	-lu-	2A\	.	-lu-	2e\	-lu-	.	.	2cc\	-ia
2D,<\	-ia	2D,<\	.	-ia	2d,<\	-ia	2r	.	2r	.
!LO:TX:t=P:problem:kreska pseudotaktowa	!	!LO:TX:t=P:problem:kreska pseudotaktowa	!	!	!	!	!	!	!	!
[2BBn/	al-	2BB/	.	al-	1d\	al-	1g\	al-	1b\	al-
=101-	=101-	=101-	=101-	=101-	=101-	=101-	=101-	=101-	=101-	=101-
2BB/]	.	2BB/	.	-le-	.	.	.	.	.	.
!	!	!LO:TX:t=P:problem:kreska pseudotaktowa	!	!	!	!	!LO:TX:t=P:problem:kreska pseudotaktowa	!	!	!
2C/	-le-	2C/	.	.	4c\	le-	2g\	-le-	4a\	-le-
!	!	!	!	!	!LO:TX:t=P:problem:kreska pseudotaktowa	!	!	!	!LO:TX:t=P:problem:kreska pseudotaktowa	!
.	.	.	.	.	4B\	.	.	.	4g\	.
!LO:TX:t=P:problem:kreska pseudotaktowa	!	!	!	!	!	!	!LO:TX:t=P:problem:♯ above	!	!	!
1D\	-lu-	1D\	.	-lu-	1A\	-lu-	4f#X\	-lu-	1dd\	-lu-
.	.	.	.	.	.	.	2g\	.	.	.
.	.	.	.	.	.	.	4f#\	.	.	.
=102-	=102-	=102-	=102-	=102-	=102-	=102-	=102-	=102-	=102-	=102-
!	!	!	!	!	!	!	!	!	!LO:TX:i:b:t=Vertat	!
0GG/;	-ia.	0GG/;	.	-ia.	0G/;	-ia.	0g\;	-ia.	0b\;	-ia.
==	==	==	==	==	==	==	==	==	==	==
*-	*-	*-	*-	*-	*-	*-	*-	*-	*-	*-
!!!system-decoration: [(s1,s2,s3,s4)][(s5)]
!!!RDF**kern: > = above
!!!RDF**kern: < = below
!!!EED: Andrzej Borzym
!!!EST: 2021-03-28
!!!ENC: Andrzej Kubiczek
!!!END: 2021-03-10
